#define Xbitmap_width 198
#define Xbitmap_height 336
static unsigned char Xbitmap_bits[] = {
        0x00, 0x00, 0x00, 0x00, 0x00, 0x00, 0x00, 0x00, 0x00, 
        0x00, 0x00, 0x00, 0x00, 0x00, 0x00, 0x00, 0x00, 0x00, 
        0x00, 0x00, 0x00, 0x00, 0x00, 0x00, 0xc0, 0x00, 0x00, 
        0x00, 0x00, 0x00, 0x00, 0x00, 0x00, 0x00, 0x00, 0x00, 
        0x00, 0x00, 0x00, 0x00, 0x00, 0x00, 0x00, 0x00, 0x00, 
        0x00, 0x00, 0x00, 0x00, 0xc0, 0x00, 0x00, 0x00, 0x00, 
        0x00, 0x00, 0x00, 0x00, 0x00, 0x00, 0x00, 0xc0, 0x5e, 
        0x00, 0x00, 0x00, 0x00, 0x00, 0x00, 0x00, 0x00, 0x00, 
        0x00, 0x00, 0xc0, 0x00, 0x00, 0x00, 0x00, 0x00, 0x00, 
        0x00, 0x00, 0x00, 0x00, 0x00, 0xb4, 0xff, 0x03, 0x40, 
        0xbf, 0x02, 0x00, 0x00, 0x00, 0x00, 0x00, 0x00, 0x00, 
        0xc0, 0x00, 0x00, 0x00, 0x00, 0x00, 0x00, 0x00, 0x00, 
        0x00, 0x00, 0x80, 0xfe, 0xf7, 0x1e, 0xf8, 0xdb, 0x15, 
        0x00, 0x00, 0x00, 0x00, 0x00, 0x00, 0x00, 0xc0, 0x00, 
        0x00, 0x00, 0x00, 0x00, 0x00, 0x00, 0x00, 0x00, 0x00, 
        0xf0, 0xff, 0xff, 0x77, 0xfe, 0xff, 0xae, 0x00, 0x00, 
        0x00, 0x00, 0x00, 0x00, 0x00, 0xc0, 0x00, 0x00, 0x00, 
        0x00, 0x00, 0x00, 0x00, 0x00, 0x00, 0x00, 0xec, 0xff, 
        0xdf, 0xdf, 0xff, 0xdf, 0x77, 0x05, 0x00, 0x00, 0x00, 
        0x00, 0x00, 0x00, 0xc0, 0x00, 0x00, 0x00, 0x00, 0x00, 
        0x00, 0x00, 0x00, 0x00, 0x00, 0xfd, 0xff, 0x7f, 0x7b, 
        0xff, 0xff, 0xdd, 0x0a, 0x00, 0x00, 0x00, 0x00, 0x00, 
        0x00, 0xc0, 0x00, 0x00, 0x00, 0x00, 0x00, 0x00, 0x00, 
        0x00, 0x00, 0xc0, 0xff, 0xff, 0xfd, 0xdf, 0xff, 0xff, 
        0x7f, 0x57, 0x00, 0x00, 0x00, 0x00, 0x00, 0x00, 0xc0, 
        0x00, 0x00, 0x00, 0x00, 0x00, 0x00, 0x00, 0x00, 0x00, 
        0x60, 0xff, 0xff, 0xaf, 0xfd, 0xff, 0xbf, 0xef, 0x3b, 
        0x01, 0x00, 0x00, 0x00, 0x00, 0x00, 0xc0, 0x00, 0x00, 
        0x00, 0x00, 0x00, 0x00, 0x00, 0x00, 0x00, 0xf0, 0xff, 
        0xbf, 0xfb, 0xff, 0xff, 0xff, 0xbd, 0xed, 0x04, 0x00, 
        0x00, 0x00, 0x00, 0x00, 0xc0, 0x00, 0x00, 0x00, 0x00, 
        0x00, 0x00, 0x00, 0x00, 0x00, 0xfc, 0xff, 0xff, 0xd7, 
        0xff, 0xff, 0xff, 0xf7, 0xbf, 0x12, 0x00, 0x00, 0x00, 
        0x00, 0x00, 0xc0, 0x00, 0x00, 0x00, 0x00, 0x00, 0x00, 
        0x00, 0x00, 0x00, 0xef, 0xff, 0xff, 0x7e, 0xff, 0xff, 
        0xbf, 0xfd, 0xf6, 0x07, 0x00, 0x00, 0x00, 0x00, 0x00, 
        0xc0, 0x00, 0x00, 0x00, 0x00, 0x00, 0x00, 0x00, 0x00, 
        0x80, 0xfd, 0xff, 0xff, 0xeb, 0xff, 0xff, 0xff, 0xdf, 
        0xdf, 0x2a, 0x01, 0x00, 0x00, 0x00, 0x00, 0xc0, 0x00, 
        0x00, 0x00, 0x00, 0x00, 0x00, 0x00, 0x00, 0x60, 0xff, 
        0xff, 0xaf, 0xfe, 0xff, 0xff, 0xff, 0x77, 0xfb, 0x1f, 
        0x00, 0x00, 0x00, 0x00, 0x00, 0xc0, 0x00, 0x00, 0x00, 
        0x00, 0x00, 0x00, 0x00, 0x00, 0xb0, 0xff, 0xff, 0x7f, 
        0xff, 0xff, 0xff, 0xff, 0xff, 0x6f, 0x6b, 0x00, 0x00, 
        0x00, 0x00, 0x00, 0xc0, 0x00, 0x00, 0x00, 0x00, 0x00, 
        0x00, 0x00, 0x00, 0xe8, 0xff, 0xff, 0xd7, 0xfa, 0xff, 
        0xff, 0x7f, 0xdf, 0xfe, 0x5f, 0x00, 0x00, 0x00, 0x00, 
        0x00, 0xc0, 0x00, 0x00, 0x00, 0x00, 0x00, 0x00, 0x00, 
        0x00, 0xfe, 0xff, 0x7f, 0xbf, 0xff, 0xff, 0xff, 0xff, 
        0xff, 0xdb, 0xf6, 0x01, 0x00, 0x00, 0x00, 0x00, 0xc0, 
        0x00, 0x00, 0x00, 0x00, 0x00, 0x00, 0x00, 0x00, 0xfd, 
        0xff, 0xf7, 0x55, 0xff, 0xff, 0xff, 0xfd, 0xbd, 0xff, 
        0xbf, 0x02, 0x00, 0x00, 0x00, 0x00, 0xc0, 0x00, 0x00, 
        0x00, 0x00, 0x00, 0x00, 0x00, 0x80, 0xf6, 0xff, 0x7f, 
        0xff, 0xfd, 0xff, 0xff, 0xf7, 0xff, 0xba, 0xed, 0x07, 
        0x00, 0x00, 0x00, 0x00, 0xc0, 0x00, 0x00, 0x00, 0x00, 
        0x00, 0x00, 0x00, 0xa0, 0xdf, 0xff, 0xff, 0xab, 0xff, 
        0xff, 0xff, 0xff, 0xf7, 0xef, 0x7f, 0x15, 0x00, 0x00, 
        0x00, 0x00, 0xc0, 0x00, 0x00, 0x00, 0x00, 0x00, 0x00, 
        0x00, 0xc0, 0xfe, 0xff, 0xdf, 0xff, 0xff, 0xff, 0xff, 
        0xbf, 0xdf, 0xd6, 0xda, 0x2f, 0x00, 0x00, 0x00, 0x00, 
        0xc0, 0x00, 0x00, 0x00, 0x00, 0x00, 0x00, 0x00, 0xf0, 
        0xff, 0xff, 0xff, 0xfa, 0xff, 0xff, 0xff, 0xfd, 0xfe, 
        0xbf, 0xff, 0x5a, 0x00, 0x00, 0x00, 0x00, 0xc0, 0x00, 
        0x00, 0x00, 0x00, 0x00, 0x00, 0x00, 0xd0, 0xfb, 0xff, 
        0x5f, 0xea, 0xff, 0xff, 0xff, 0xef, 0x6f, 0x77, 0xeb, 
        0x2f, 0x10, 0x00, 0x00, 0x00, 0xc0, 0x00, 0x00, 0x00, 
        0x00, 0x00, 0x00, 0x00, 0x7c, 0xff, 0xbf, 0xeb, 0xff, 
        0xff, 0xff, 0xff, 0x7f, 0xfb, 0xda, 0xbd, 0x7b, 0x01, 
        0x00, 0x00, 0x00, 0xc0, 0x00, 0x00, 0x00, 0x00, 0x00, 
        0x00, 0x00, 0xf4, 0xff, 0xff, 0x7f, 0xff, 0xff, 0xff, 
        0xff, 0xff, 0xdf, 0xad, 0xee, 0xae, 0x40, 0x00, 0x00, 
        0x00, 0xc0, 0x00, 0x00, 0x00, 0x00, 0x00, 0x00, 0x00, 
        0xde, 0xff, 0xff, 0xde, 0xfd, 0xff, 0xff, 0xff, 0xf7, 
        0x75, 0xb7, 0xbb, 0xff, 0x02, 0x00, 0x00, 0x00, 0xc0, 
        0x00, 0x00, 0x00, 0x00, 0x00, 0x00, 0x00, 0xf7, 0xff, 
        0xff, 0xb7, 0xff, 0xff, 0xff, 0xff, 0xbe, 0xbf, 0x95, 
        0xee, 0xb5, 0x0a, 0x00, 0x00, 0x00, 0xc0, 0x00, 0x00, 
        0x00, 0x00, 0x00, 0x00, 0x80, 0xfa, 0xfd, 0xff, 0x4a, 
        0xff, 0xff, 0xff, 0xff, 0xff, 0xdb, 0xae, 0xba, 0xff, 
        0x03, 0x00, 0x00, 0x00, 0xc0, 0x00, 0x00, 0x00, 0x00, 
        0x00, 0x00, 0x40, 0xdf, 0xff, 0xdf, 0xb7, 0xfd, 0xff, 
        0xff, 0xff, 0xd7, 0x5e, 0x71, 0xed, 0x56, 0x0d, 0x00, 
        0x00, 0x00, 0xc0, 0x00, 0x00, 0x00, 0x00, 0x00, 0x00, 
        0xc0, 0xf6, 0xff, 0xff, 0xda, 0xff, 0xff, 0xff, 0xef, 
        0xff, 0x5b, 0xa5, 0xba, 0xff, 0x2b, 0x00, 0x00, 0x00, 
        0xc0, 0x00, 0x00, 0x00, 0x00, 0x00, 0x00, 0xa0, 0xff, 
        0xff, 0xdf, 0xff, 0xff, 0xef, 0xff, 0xbf, 0x7f, 0x6d, 
        0x48, 0xeb, 0xda, 0x1d, 0x00, 0x00, 0x00, 0xc0, 0x00, 
        0x00, 0x00, 0x00, 0x00, 0x00, 0x50, 0xfd, 0xff, 0xfd, 
        0xfe, 0xff, 0xff, 0xff, 0xff, 0xef, 0x57, 0x40, 0xdd, 
        0x7f, 0x57, 0x02, 0x00, 0x00, 0xc0, 0x00, 0x00, 0x00, 
        0x00, 0x00, 0x00, 0xe8, 0xff, 0xff, 0xff, 0xfb, 0xff, 
        0xff, 0xff, 0xff, 0xfd, 0x1b, 0x21, 0x6b, 0xd7, 0x3b, 
        0x00, 0x00, 0x00, 0xc0, 0x00, 0x00, 0x00, 0x00, 0x00, 
        0x00, 0xa8, 0xbb, 0xff, 0x5f, 0xed, 0xff, 0xff, 0xff, 
        0xef, 0xbf, 0x8e, 0x40, 0xdd, 0x7d, 0xaf, 0x00, 0x00, 
        0x00, 0xc0, 0x00, 0x00, 0x00, 0x00, 0x00, 0x00, 0x64, 
        0xff, 0xff, 0xff, 0xff, 0xff, 0xff, 0xff, 0xbf, 0xfb, 
        0x37, 0xa2, 0x6a, 0xdf, 0xbd, 0x00, 0x00, 0x00, 0xc0, 
        0x00, 0x00, 0x00, 0x00, 0x00, 0x00, 0xf8, 0xff, 0xff, 
        0xf7, 0xff, 0xff, 0xff, 0xff, 0xff, 0xef, 0x2a, 0x88, 
        0xba, 0x7b, 0xd7, 0x12, 0x00, 0x00, 0xc0, 0x00, 0x00, 
        0x00, 0x00, 0x00, 0x80, 0xb4, 0xfb, 0xff, 0xdf, 0xff, 
        0xff, 0xff, 0xff, 0xff, 0xbd, 0x6f, 0x40, 0xed, 0xde, 
        0x7d, 0x21, 0x00, 0x00, 0xc0, 0x00, 0x00, 0x00, 0x00, 
        0x00, 0x00, 0xfa, 0xff, 0xff, 0xff, 0xff, 0xff, 0xff, 
        0xff, 0x77, 0xef, 0x82, 0x29, 0xb5, 0x7d, 0xb7, 0x01, 
        0x00, 0x00, 0xc0, 0x00, 0x00, 0x00, 0x00, 0x00, 0x00, 
        0xea, 0xff, 0xef, 0xff, 0xff, 0xff, 0xff, 0xbf, 0xff, 
        0x77, 0x0b, 0xa1, 0xed, 0xf7, 0x7b, 0x45, 0x00, 0x00, 
        0xc0, 0x00, 0x00, 0x00, 0x00, 0x00, 0x00, 0xbd, 0xfd, 
        0xbf, 0xbd, 0xff, 0xff, 0xff, 0xff, 0xdf, 0xbf, 0x15, 
        0xa6, 0x56, 0xbd, 0xdf, 0x03, 0x00, 0x00, 0xc0, 0x00, 
        0x00, 0x00, 0x00, 0x00, 0x80, 0xee, 0xff, 0xff, 0xff, 
        0xff, 0xff, 0xff, 0xff, 0xfe, 0x6d, 0x05, 0x54, 0xfb, 
        0xf7, 0xba, 0x0a, 0x00, 0x00, 0xc0, 0x00, 0x00, 0x00, 
        0x00, 0x00, 0x00, 0xfa, 0xff, 0xff, 0xff, 0xff, 0xff, 
        0xff, 0xff, 0x7b, 0xbf, 0x12, 0x5a, 0x6b, 0xed, 0xef, 
        0x0d, 0x00, 0x00, 0xc0, 0x00, 0x00, 0x00, 0x00, 0x00, 
        0x00, 0xbe, 0xff, 0x7f, 0xff, 0xff, 0xff, 0xff, 0xff, 
        0xef, 0xdb, 0x44, 0x68, 0xdd, 0xdf, 0x7b, 0x0b, 0x00, 
        0x00, 0xc0, 0x00, 0x00, 0x00, 0x00, 0x00, 0x00, 0xeb, 
        0xff, 0xff, 0xf7, 0xff, 0xff, 0xff, 0xff, 0xbf, 0xf7, 
        0x80, 0xd4, 0xae, 0x75, 0xaf, 0x1b, 0x00, 0x00, 0xc0, 
        0x00, 0x00, 0x00, 0x00, 0x00, 0x00, 0xfd, 0xdf, 0xfd, 
        0xff, 0xfe, 0xff, 0xff, 0xdf, 0x7e, 0x5d, 0x21, 0x69, 
        0x7b, 0xdf, 0xff, 0x2d, 0x00, 0x00, 0xc0, 0x00, 0x00, 
        0x00, 0x00, 0x00, 0x80, 0xfa, 0xff, 0xbf, 0xff, 0xff, 
        0xff, 0xff, 0xff, 0xdb, 0xae, 0x03, 0xdb, 0xad, 0xfb, 
        0x76, 0x37, 0x00, 0x00, 0xc0, 0x00, 0x00, 0x00, 0x00, 
        0x00, 0x00, 0xed, 0xff, 0xf7, 0xfe, 0xff, 0xff, 0xff, 
        0xff, 0xff, 0x5b, 0x02, 0xaa, 0xfb, 0xae, 0xdf, 0x2b, 
        0x00, 0x00, 0xc0, 0x00, 0x00, 0x00, 0x00, 0x00, 0x00, 
        0xbd, 0xff, 0xff, 0xef, 0xfd, 0xff, 0xff, 0x7f, 0x5b, 
        0x6b, 0x84, 0x6e, 0x6d, 0xfd, 0xfa, 0x6e, 0x10, 0x00, 
        0xc0, 0x00, 0x00, 0x00, 0x00, 0x00, 0x00, 0xfe, 0xed, 
        0x7f, 0xbf, 0xff, 0xff, 0xff, 0xfd, 0xff, 0xad, 0x08, 
        0xd4, 0xf7, 0xdb, 0xbf, 0xbb, 0x00, 0x00, 0xc0, 0x00, 
        0x00, 0x00, 0x00, 0x00, 0x00, 0xfa, 0xff, 0xf6, 0xfb, 
        0xff, 0xff, 0xff, 0xff, 0x6d, 0x45, 0x11, 0xbd, 0xde, 
        0x7d, 0xfb, 0x56, 0x00, 0x00, 0xc0, 0x00, 0x00, 0x00, 
        0x00, 0x00, 0x00, 0xff, 0xfd, 0xdf, 0xef, 0xff, 0xff, 
        0xff, 0xff, 0xbb, 0x0b, 0x90, 0xb4, 0xbb, 0xdb, 0xef, 
        0xdf, 0x02, 0x00, 0xc0, 0x00, 0x00, 0x00, 0x00, 0x00, 
        0x00, 0x77, 0xbf, 0xfb, 0xfe, 0xfe, 0xff, 0xff, 0xf7, 
        0xef, 0x1a, 0x22, 0xfa, 0x6e, 0xf7, 0x7a, 0xb5, 0x00, 
        0x00, 0xc0, 0x00, 0x00, 0x00, 0x00, 0x00, 0x80, 0xfe, 
        0xfe, 0xee, 0xfb, 0xff, 0xff, 0xff, 0x7f, 0x57, 0x25, 
        0x68, 0x55, 0xfb, 0xdd, 0xff, 0xdf, 0x02, 0x00, 0xc0, 
        0x00, 0x00, 0x00, 0x00, 0x00, 0x80, 0xbf, 0x57, 0xbb, 
        0xee, 0xff, 0xff, 0xdf, 0xff, 0xbb, 0x25, 0x44, 0xf5, 
        0x6d, 0xef, 0xd6, 0x75, 0x05, 0x00, 0xc0, 0x00, 0x00, 
        0x00, 0x00, 0x00, 0x80, 0xda, 0x7f, 0xf5, 0xbb, 0xff, 
        0xff, 0xff, 0xf7, 0x4f, 0x45, 0xd0, 0xda, 0xf7, 0xbb, 
        0xff, 0x5f, 0x05, 0x00, 0xc0, 0x00, 0x00, 0x00, 0x00, 
        0x00, 0xc0, 0xff, 0xaf, 0xbc, 0xfe, 0xff, 0xff, 0xff, 
        0xdf, 0xae, 0x82, 0x58, 0xeb, 0xae, 0xed, 0xad, 0xf7, 
        0x0a, 0x00, 0xc0, 0x00, 0x00, 0x00, 0x00, 0x00, 0xa0, 
        0xee, 0x37, 0xb6, 0xef, 0xff, 0xff, 0x7f, 0xff, 0x9b, 
        0x04, 0x50, 0xad, 0xdb, 0x7f, 0xff, 0xae, 0x05, 0x00, 
        0xc0, 0x00, 0x00, 0x00, 0x00, 0x40, 0xc0, 0xf7, 0x4d, 
        0xdc, 0xfa, 0xfe, 0x7f, 0xff, 0xef, 0x15, 0x05, 0xb1, 
        0x77, 0x7f, 0xd7, 0xab, 0x77, 0x15, 0x00, 0xc0, 0x00, 
        0x00, 0x00, 0x00, 0x00, 0x60, 0xdb, 0x2f, 0x6f, 0xff, 
        0xff, 0xff, 0xfd, 0xff, 0x2d, 0x08, 0xe5, 0x9a, 0xbb, 
        0x7d, 0xff, 0xbf, 0x0a, 0x00, 0xc0, 0x00, 0x00, 0x00, 
        0x00, 0x00, 0xa0, 0x7b, 0x95, 0xa6, 0xdb, 0xff, 0xff, 
        0x6f, 0xbf, 0x53, 0x08, 0x52, 0xef, 0xef, 0xde, 0xbe, 
        0xee, 0x2b, 0x00, 0xc0, 0x00, 0x00, 0x00, 0x00, 0x20, 
        0xf0, 0xfd, 0x4f, 0xfb, 0xfe, 0xff, 0x7f, 0xfb, 0xfd, 
        0x25, 0x90, 0xea, 0xb5, 0xfe, 0xfb, 0xed, 0xbb, 0x1a, 
        0x00, 0xc0, 0x00, 0x00, 0x00, 0x00, 0x00, 0xd0, 0xfa, 
        0x66, 0x53, 0xff, 0xff, 0xf7, 0xbf, 0x5f, 0x23, 0xb0, 
        0x56, 0xdd, 0xdb, 0x6e, 0xbf, 0xde, 0x15, 0x00, 0xc0, 
        0x00, 0x00, 0x00, 0x00, 0x00, 0x48, 0xbe, 0x9b, 0xa9, 
        0xf5, 0xff, 0xff, 0xf6, 0xfd, 0x87, 0x50, 0xad, 0x6f, 
        0xff, 0xf7, 0xfa, 0xff, 0x26, 0x00, 0xc0, 0x00, 0x00, 
        0x00, 0x00, 0x10, 0x70, 0xff, 0xed, 0x49, 0xdf, 0xff, 
        0xdf, 0xbb, 0xb6, 0x42, 0xe0, 0xea, 0xdd, 0xbe, 0xbd, 
        0xdf, 0xae, 0x35, 0x00, 0xc0, 0x00, 0x00, 0x00, 0x00, 
        0x00, 0x14, 0x5b, 0xd7, 0xa4, 0xfe, 0xaf, 0xfd, 0xea, 
        0xfd, 0x07, 0x65, 0x5b, 0xbb, 0xf7, 0xef, 0xfd, 0xfd, 
        0x4e, 0x00, 0xc0, 0x00, 0x00, 0x00, 0x00, 0x00, 0x90, 
        0xff, 0x7b, 0x8a, 0xea, 0xfe, 0xff, 0xaa, 0x6e, 0x95, 
        0xa2, 0xae, 0x6f, 0x7d, 0xbf, 0x6b, 0xbd, 0x35, 0x00, 
        0xc0, 0x00, 0x00, 0x00, 0x00, 0x08, 0x48, 0xdf, 0x5e, 
        0x53, 0xff, 0xb7, 0xd6, 0x62, 0xb9, 0x4f, 0xed, 0xb5, 
        0xbe, 0xff, 0xf5, 0xfe, 0xfb, 0xd6, 0x00, 0xc0, 0x00, 
        0x00, 0x00, 0x00, 0x00, 0xc8, 0xfb, 0x77, 0x15, 0xfb, 
        0x5b, 0x7f, 0x48, 0xed, 0xaa, 0x56, 0xaf, 0x75, 0xed, 
        0x7f, 0xf7, 0x75, 0x1b, 0x00, 0xc0, 0x00, 0x00, 0x00, 
        0x00, 0x00, 0xa4, 0x6e, 0xdb, 0x55, 0x6d, 0x6f, 0xed, 
        0x40, 0x75, 0x5f, 0xdb, 0x75, 0xdf, 0x7f, 0xef, 0xdb, 
        0xef, 0x6d, 0x01, 0xc0, 0x00, 0x00, 0x00, 0x00, 0x00, 
        0xe0, 0xff, 0x7f, 0x95, 0xf9, 0x95, 0xda, 0x42, 0xd4, 
        0x6e, 0xb5, 0xae, 0x76, 0xf5, 0xfd, 0xef, 0xb6, 0x15, 
        0x02, 0xc0, 0x00, 0x00, 0x00, 0x00, 0x00, 0x50, 0xb7, 
        0xd7, 0xdb, 0xfc, 0xd6, 0x6e, 0x48, 0x65, 0xbb, 0xaf, 
        0x77, 0xfd, 0xff, 0x77, 0xbb, 0xf7, 0xb6, 0x00, 0xc0, 
        0x00, 0x00, 0x00, 0x00, 0x00, 0xf0, 0xff, 0xfd, 0xd6, 
        0x74, 0x13, 0xea, 0xa4, 0xc2, 0x6e, 0xfb, 0xad, 0xaf, 
        0xda, 0xdf, 0xdf, 0xbb, 0xab, 0x02, 0xc0, 0x00, 0x00, 
        0x00, 0x00, 0x00, 0xa8, 0xef, 0xdf, 0x7b, 0xdd, 0xaa, 
        0x5e, 0x55, 0x45, 0xbb, 0x5e, 0x7f, 0xfd, 0xff, 0xbb, 
        0x6f, 0xef, 0x55, 0x04, 0xc0, 0x00, 0x00, 0x00, 0x00, 
        0x00, 0xd4, 0xfe, 0x7f, 0x6f, 0x7a, 0x09, 0xea, 0xba, 
        0xc2, 0xee, 0xf5, 0xd6, 0xf5, 0xb5, 0xff, 0x7d, 0xdd, 
        0x76, 0x02, 0xc0, 0x00, 0x00, 0x00, 0x00, 0x00, 0xf4, 
        0xbb, 0xed, 0xbd, 0xba, 0xa5, 0xde, 0x56, 0x85, 0xbb, 
        0xbe, 0xbf, 0xbe, 0xff, 0xdf, 0xbf, 0xdb, 0x45, 0x01, 
        0xc0, 0x00, 0x00, 0x00, 0x00, 0x00, 0xda, 0xff, 0x7f, 
        0x7b, 0x5d, 0x14, 0x6a, 0x7b, 0x03, 0xf5, 0xf7, 0xda, 
        0xfb, 0xeb, 0x7f, 0xff, 0xb5, 0x57, 0x02, 0xc0, 0x00, 
        0x00, 0x00, 0x00, 0x00, 0xba, 0xf7, 0xff, 0xaf, 0x5d, 
        0x83, 0xb6, 0x5d, 0x81, 0xd7, 0xbd, 0x5f, 0x6d, 0xff, 
        0xfb, 0xed, 0xb7, 0xcd, 0x08, 0xc0, 0x00, 0x00, 0x00, 
        0x00, 0x00, 0xed, 0xff, 0x6e, 0x7d, 0x5d, 0x10, 0xba, 
        0x6e, 0x85, 0x72, 0xf7, 0xf6, 0xfb, 0xb7, 0xdf, 0xbf, 
        0x5e, 0x4b, 0x05, 0xc0, 0x00, 0x00, 0x00, 0x00, 0x80, 
        0xfa, 0xfd, 0xff, 0xbf, 0x5a, 0x4a, 0xda, 0x77, 0x01, 
        0xd7, 0xbe, 0xbf, 0xdd, 0xff, 0xff, 0xfe, 0x6f, 0x9e, 
        0x02, 0xc0, 0x00, 0x00, 0x00, 0x00, 0x80, 0xf6, 0xdf, 
        0x7f, 0xf7, 0xaf, 0x00, 0xb6, 0x3d, 0x03, 0xe5, 0xeb, 
        0x5b, 0xf3, 0xb6, 0xff, 0xdb, 0x7e, 0x91, 0x08, 0xc0, 
        0x00, 0x00, 0x00, 0x00, 0x40, 0xeb, 0xfd, 0xef, 0x5f, 
        0x55, 0x4a, 0x5a, 0x77, 0x01, 0xa7, 0xfe, 0xfe, 0xff, 
        0xff, 0x77, 0xff, 0xbb, 0x05, 0x09, 0xc0, 0x00, 0x00, 
        0x00, 0x00, 0x80, 0xfe, 0xff, 0xbe, 0xff, 0x2f, 0x01, 
        0xdd, 0x5d, 0x01, 0xe5, 0xef, 0xaf, 0xd6, 0x6b, 0xff, 
        0xf7, 0xfe, 0x5e, 0x10, 0xc0, 0x00, 0x00, 0x00, 0x00, 
        0x40, 0xf5, 0xff, 0xff, 0xb7, 0x56, 0x08, 0xda, 0x76, 
        0x01, 0x43, 0x7d, 0xfb, 0x7b, 0xff, 0xff, 0xdf, 0x77, 
        0xad, 0x00, 0xc0, 0x00, 0x00, 0x00, 0x00, 0x60, 0xfe, 
        0xdd, 0xef, 0xff, 0x2f, 0x22, 0x4d, 0x3f, 0x01, 0xc6, 
        0xf7, 0xbf, 0xf7, 0xef, 0xdf, 0xbb, 0xfd, 0x39, 0x05, 
        0xc0, 0x00, 0x00, 0x00, 0x00, 0x20, 0xfb, 0xff, 0xff, 
        0xdf, 0x56, 0x89, 0xdc, 0xbb, 0x00, 0x45, 0xdd, 0xf7, 
        0xee, 0x7f, 0xff, 0x7f, 0x6f, 0x51, 0x00, 0xc0, 0x00, 
        0x00, 0x00, 0x00, 0x10, 0xed, 0xff, 0xdf, 0xff, 0x17, 
        0x00, 0xaa, 0x96, 0x00, 0x82, 0xff, 0xbe, 0xd7, 0xed, 
        0xff, 0xef, 0xfb, 0x73, 0x04, 0xc0, 0x00, 0x00, 0x00, 
        0x00, 0x98, 0xff, 0xbe, 0xff, 0xbf, 0x97, 0x22, 0xcd, 
        0xbf, 0x00, 0x06, 0xab, 0xff, 0xff, 0x7f, 0xff, 0xff, 
        0xbe, 0xa5, 0x08, 0xc0, 0x00, 0x00, 0x00, 0x00, 0x08, 
        0xfd, 0xfb, 0xfd, 0xfb, 0x2a, 0x88, 0x54, 0xb5, 0x00, 
        0x82, 0xfe, 0x77, 0xeb, 0xef, 0xff, 0xf7, 0xfb, 0x63, 
        0x01, 0xc0, 0x00, 0x00, 0x00, 0x00, 0x88, 0xff, 0xfe, 
        0xf7, 0x6f, 0x97, 0x02, 0xd6, 0x9f, 0x00, 0x06, 0xfb, 
        0xdf, 0xdf, 0xff, 0x7f, 0xbf, 0x77, 0x4b, 0x01, 0xc0, 
        0x00, 0x00, 0x00, 0x00, 0x8c, 0xfd, 0xff, 0xff, 0xff, 
        0x2b, 0xa0, 0xa2, 0x55, 0x00, 0x02, 0xfe, 0xfd, 0xaf, 
        0xdf, 0x1f, 0xed, 0xfd, 0x97, 0x01, 0xc0, 0x00, 0x00, 
        0x00, 0x00, 0x46, 0xff, 0xdf, 0xff, 0x6f, 0x4b, 0x09, 
        0xd6, 0x1f, 0x00, 0xc2, 0x6f, 0xbf, 0xfe, 0x7e, 0xaf, 
        0xf7, 0xd7, 0x8b, 0x12, 0xc0, 0x00, 0x00, 0x00, 0x00, 
        0x84, 0xfb, 0xfe, 0xfb, 0xff, 0x56, 0x80, 0x42, 0x55, 
        0x00, 0xf3, 0xbb, 0xef, 0xdb, 0xef, 0x4f, 0xdf, 0x7e, 
        0x2f, 0x43, 0xc0, 0x00, 0x00, 0x00, 0x00, 0x83, 0xdf, 
        0xff, 0xff, 0xd7, 0x0a, 0x0a, 0xea, 0x0f, 0x00, 0xfd, 
        0x6a, 0xfd, 0xff, 0xff, 0xaf, 0xfa, 0xf7, 0x36, 0x02, 
        0xc0, 0x00, 0x00, 0x00, 0x00, 0x80, 0xfe, 0xfe, 0xff, 
        0xff, 0xa6, 0x20, 0xa1, 0x0d, 0x20, 0x3f, 0xb4, 0xdf, 
        0xae, 0xbb, 0xcf, 0xde, 0xdd, 0x5d, 0x0a, 0xc0, 0x00, 
        0x00, 0x00, 0x80, 0xc1, 0xff, 0xed, 0xff, 0x6f, 0x15, 
        0x02, 0x69, 0x27, 0x80, 0x8f, 0x5a, 0xff, 0xff, 0xef, 
        0xae, 0xfa, 0xef, 0x27, 0x04, 0xc0, 0x00, 0x00, 0x00, 
        0x00, 0x80, 0xee, 0xff, 0xfe, 0xbd, 0xa5, 0x28, 0xd1, 
        0x13, 0xf0, 0x4b, 0xfa, 0x7d, 0xbb, 0xff, 0x6f, 0xe9, 
        0xfb, 0x5e, 0x04, 0xc0, 0x00, 0x00, 0x00, 0x80, 0xc0, 
        0xff, 0xfe, 0xfb, 0xd7, 0x16, 0x01, 0xe5, 0x06, 0xfd, 
        0xa5, 0xff, 0xef, 0xdf, 0xef, 0xbf, 0xba, 0xef, 0xb7, 
        0x08, 0xc0, 0x00, 0x00, 0x00, 0x00, 0x80, 0xbb, 0xf7, 
        0xff, 0xbe, 0x4a, 0x94, 0x70, 0x93, 0xfe, 0xfa, 0xff, 
        0xff, 0xff, 0xbf, 0x5f, 0xf5, 0xb7, 0xdf, 0x0a, 0xc0, 
        0x00, 0x00, 0x00, 0x40, 0xc4, 0xfe, 0xfe, 0xff, 0xd7, 
        0x25, 0x81, 0xe8, 0xab, 0xbf, 0xff, 0xff, 0xbf, 0xbd, 
        0xfb, 0x2e, 0xd2, 0xdf, 0xb5, 0x12, 0xc0, 0x00, 0x00, 
        0x00, 0x00, 0x40, 0xff, 0x77, 0xef, 0xbe, 0x56, 0x2a, 
        0xa2, 0xea, 0xff, 0xff, 0xff, 0xff, 0xf7, 0xef, 0x57, 
        0xf5, 0xaf, 0x5f, 0x01, 0xc0, 0x00, 0x00, 0x00, 0x00, 
        0x84, 0xfb, 0xfe, 0xff, 0xb5, 0x95, 0x40, 0xf8, 0xfd, 
        0xef, 0xff, 0xff, 0xdb, 0xbf, 0xbf, 0xbf, 0xb2, 0xff, 
        0xae, 0x25, 0xc0, 0x00, 0x00, 0x00, 0x00, 0xc4, 0xef, 
        0xfb, 0xff, 0x5f, 0x55, 0x94, 0xd2, 0x6a, 0xfd, 0xbf, 
        0xff, 0xff, 0xfe, 0xef, 0xef, 0xe5, 0x5f, 0xbf, 0x04, 
        0xc0, 0x00, 0x00, 0x00, 0x00, 0xc0, 0xfe, 0xff, 0xff, 
        0xff, 0xab, 0x62, 0x78, 0xff, 0xff, 0xff, 0xef, 0xfb, 
        0x7b, 0xff, 0x5e, 0xb5, 0xff, 0xab, 0x02, 0xc0, 0x00, 
        0x00, 0x00, 0x00, 0xc6, 0xf7, 0xbe, 0xff, 0xf7, 0xbf, 
        0x15, 0xaa, 0x5a, 0xff, 0xff, 0xff, 0xdd, 0xff, 0xdb, 
        0xef, 0xd7, 0xbd, 0xbd, 0x09, 0xc0, 0x00, 0x00, 0x00, 
        0x00, 0x40, 0xff, 0xfb, 0xbf, 0xff, 0xfe, 0x4a, 0x59, 
        0xef, 0xbf, 0xfe, 0xfb, 0x7a, 0x7f, 0xff, 0xaf, 0xd2, 
        0xff, 0x5f, 0x0c, 0xc0, 0x00, 0x00, 0x00, 0x00, 0xc6, 
        0xed, 0xff, 0xff, 0xfd, 0xff, 0x2b, 0x5a, 0xb5, 0x7f, 
        0xfd, 0x7f, 0xf5, 0xfd, 0x6f, 0xaf, 0xeb, 0x6f, 0xb7, 
        0x11, 0xc0, 0x00, 0x00, 0x00, 0x00, 0xa2, 0x7f, 0xff, 
        0xff, 0xff, 0xff, 0xaf, 0x94, 0xda, 0x5e, 0x7c, 0xbf, 
        0xba, 0x7f, 0xff, 0xdb, 0xd2, 0xff, 0xaf, 0x14, 0xc0, 
        0x00, 0x00, 0x00, 0x00, 0xc2, 0xf5, 0xdb, 0xff, 0xff, 
        0xff, 0x56, 0x8d, 0x76, 0xab, 0xd2, 0x5f, 0xf9, 0xfb, 
        0xef, 0xaf, 0xeb, 0xdf, 0xbd, 0x00, 0xc0, 0x00, 0x00, 
        0x00, 0x00, 0x81, 0xb7, 0xff, 0xff, 0xff, 0xff, 0x5f, 
        0x26, 0x09, 0xff, 0xfe, 0x0b, 0xec, 0xfe, 0xfe, 0x6f, 
        0xe9, 0xff, 0x57, 0x29, 0xc0, 0x00, 0x00, 0x00, 0x00, 
        0xc2, 0xfa, 0xff, 0xff, 0xff, 0xf7, 0x6f, 0x0b, 0xa5, 
        0xad, 0x5b, 0x55, 0xb9, 0xff, 0xaf, 0xdf, 0xf4, 0xdd, 
        0xbf, 0x01, 0xc0, 0x00, 0x00, 0x00, 0x00, 0x61, 0xeb, 
        0xfd, 0xff, 0xdf, 0xff, 0xbb, 0x82, 0x08, 0x6a, 0xb5, 
        0x00, 0xf4, 0xff, 0xfe, 0x6e, 0xf5, 0xff, 0x56, 0x00, 
        0xc0, 0x00, 0x00, 0x00, 0x00, 0x80, 0xf9, 0xef, 0xff, 
        0xff, 0xff, 0x5f, 0x01, 0x84, 0xd4, 0x0a, 0x91, 0xea, 
        0xfe, 0xf7, 0x3b, 0xf2, 0xdf, 0x5f, 0x41, 0xc0, 0x00, 
        0x00, 0x00, 0x00, 0x21, 0xf1, 0xff, 0xff, 0xd7, 0xff, 
        0xbb, 0x80, 0x10, 0x14, 0x45, 0x00, 0x78, 0xfb, 0xbf, 
        0x4f, 0xf9, 0xfb, 0xd7, 0x08, 0xc0, 0x00, 0x00, 0x00, 
        0x00, 0x81, 0xf9, 0xff, 0xff, 0xbf, 0xff, 0x5f, 0x01, 
        0x02, 0x41, 0x00, 0x84, 0xea, 0xff, 0xee, 0x97, 0xfa, 
        0xef, 0x5e, 0x00, 0xc0, 0x00, 0x00, 0x00, 0x00, 0x80, 
        0xf8, 0xfd, 0xff, 0xdf, 0xff, 0xf7, 0x02, 0x08, 0x10, 
        0x11, 0x10, 0xb8, 0xfe, 0xff, 0x4f, 0xfc, 0xff, 0x57, 
        0x81, 0xc0, 0x00, 0x00, 0x00, 0x00, 0x90, 0xf4, 0xf7, 
        0xff, 0xbf, 0x7e, 0x5a, 0x00, 0x00, 0x00, 0x00, 0x00, 
        0xed, 0xff, 0xed, 0x25, 0x7e, 0xb7, 0x5d, 0x00, 0xc0, 
        0x00, 0x00, 0x00, 0x80, 0x80, 0xfc, 0xff, 0x7f, 0xff, 
        0xad, 0x6d, 0x01, 0x01, 0x00, 0x40, 0x40, 0xb8, 0xfe, 
        0xbf, 0x07, 0xff, 0xff, 0xab, 0x00, 0xc0, 0x00, 0x00, 
        0x00, 0x00, 0x10, 0xea, 0xff, 0xff, 0xff, 0xb7, 0xb4, 
        0x04, 0x00, 0x40, 0x00, 0x02, 0x6c, 0xf7, 0xed, 0xa7, 
        0xfe, 0xdf, 0x5e, 0x00, 0xc0, 0x00, 0x00, 0x00, 0x80, 
        0x80, 0x7c, 0xf7, 0xff, 0xee, 0x5a, 0xd2, 0x00, 0x00, 
        0x00, 0x02, 0x00, 0xb5, 0xff, 0xff, 0x0b, 0x7f, 0xbb, 
        0xab, 0x00, 0xc0, 0x00, 0x00, 0x00, 0x00, 0x10, 0xf6, 
        0xdf, 0xdf, 0xbb, 0x45, 0x39, 0x01, 0x00, 0x00, 0x00, 
        0x48, 0xbc, 0xfe, 0x6d, 0xc7, 0xff, 0xef, 0x5d, 0x00, 
        0xc0, 0x00, 0x00, 0x00, 0x00, 0x00, 0xdc, 0xff, 0x7f, 
        0xad, 0x2a, 0xaa, 0x00, 0x02, 0x00, 0x10, 0x00, 0x56, 
        0xff, 0xff, 0xe7, 0xff, 0xdf, 0x56, 0x00, 0xc0, 0x00, 
        0x00, 0x00, 0x00, 0x00, 0xef, 0xf7, 0xbf, 0x6b, 0x95, 
        0x54, 0x01, 0x00, 0x00, 0x80, 0x80, 0x9c, 0xff, 0xf5, 
        0xd5, 0xdf, 0x76, 0x5b, 0x00, 0xc0, 0x00, 0x00, 0x00, 
        0x00, 0x00, 0xfa, 0xff, 0x7f, 0xad, 0x52, 0x55, 0x00, 
        0x08, 0x40, 0x00, 0x10, 0x46, 0xff, 0xdf, 0xff, 0xff, 
        0xdf, 0x35, 0x00, 0xc0, 0x00, 0x00, 0x00, 0x00, 0x00, 
        0xef, 0xbf, 0xbf, 0xaa, 0x14, 0x35, 0x09, 0x20, 0x00, 
        0x01, 0x00, 0xad, 0xfd, 0xf7, 0xfe, 0xff, 0x57, 0xad, 
        0x00, 0xc0, 0x00, 0x00, 0x00, 0x00, 0x00, 0xf5, 0xf7, 
        0x7f, 0xad, 0xaa, 0x14, 0x00, 0x00, 0x00, 0x00, 0x40, 
        0x86, 0xff, 0xfd, 0xff, 0xef, 0xde, 0xab, 0x00, 0xc0, 
        0x00, 0x00, 0x00, 0x00, 0x80, 0xef, 0xff, 0x3f, 0x54, 
        0x45, 0x15, 0x45, 0x00, 0x00, 0x10, 0x04, 0xd3, 0xff, 
        0xb7, 0xff, 0xff, 0x6f, 0x29, 0x00, 0xc0, 0x00, 0x00, 
        0x00, 0x00, 0x80, 0xfa, 0xef, 0x7f, 0xda, 0x2a, 0x35, 
        0x00, 0x01, 0x04, 0x40, 0x90, 0x45, 0xef, 0xfd, 0xfd, 
        0xbf, 0x97, 0xc5, 0x00, 0xc0, 0x00, 0x00, 0x00, 0x00, 
        0xc0, 0xda, 0xff, 0x7f, 0x54, 0x55, 0x15, 0x04, 0x04, 
        0x10, 0x01, 0x80, 0xa2, 0xbd, 0xf7, 0xff, 0xf6, 0xdb, 
        0x08, 0x00, 0xc0, 0x00, 0x00, 0x00, 0x00, 0x40, 0xe9, 
        0xff, 0x7f, 0xa8, 0x4a, 0x2a, 0x01, 0x10, 0x00, 0x00, 
        0x44, 0xd0, 0xff, 0xfd, 0xfe, 0x7f, 0x6f, 0xc9, 0x00, 
        0xc0, 0x00, 0x00, 0x00, 0x00, 0x60, 0xd9, 0xef, 0x7f, 
        0x68, 0x55, 0x15, 0x44, 0x00, 0x00, 0x00, 0x20, 0xe4, 
        0xbe, 0xb7, 0xff, 0xff, 0x97, 0x05, 0x00, 0xc0, 0x00, 
        0x00, 0x00, 0x00, 0x40, 0x59, 0xff, 0xff, 0xa8, 0xaa, 
        0x34, 0x02, 0x01, 0x44, 0x44, 0x50, 0xd0, 0xfb, 0xfd, 
        0xff, 0xf7, 0xed, 0x88, 0x00, 0xc0, 0x00, 0x00, 0x00, 
        0x00, 0x20, 0xda, 0xdf, 0xff, 0x50, 0xab, 0x1a, 0x00, 
        0x24, 0x00, 0x00, 0x00, 0x55, 0xdd, 0xff, 0xff, 0xff, 
        0x17, 0x05, 0x00, 0xc0, 0x00, 0x00, 0x00, 0x00, 0x10, 
        0xb3, 0xfe, 0xff, 0x61, 0x95, 0x2a, 0x02, 0x00, 0x00, 
        0x00, 0x04, 0xe0, 0x6f, 0x75, 0xff, 0xed, 0x36, 0x02, 
        0x00, 0xc0, 0x00, 0x00, 0x00, 0x00, 0x00, 0xd1, 0xbf, 
        0xff, 0x51, 0x55, 0x1a, 0x40, 0x40, 0x00, 0x00, 0x90, 
        0xb4, 0xda, 0xff, 0xff, 0xbf, 0x17, 0x05, 0x00, 0xc0, 
        0x00, 0x00, 0x00, 0x00, 0x10, 0x32, 0xef, 0xff, 0xa3, 
        0xaa, 0x2a, 0x02, 0x0d, 0x00, 0x00, 0x00, 0x50, 0xed, 
        0xbd, 0xf7, 0xfe, 0x15, 0x02, 0x00, 0xc0, 0x00, 0x00, 
        0x00, 0x00, 0x00, 0xa2, 0xfe, 0xff, 0xa3, 0x55, 0x35, 
        0x95, 0x7b, 0x00, 0x00, 0x00, 0x59, 0xd5, 0xf7, 0xff, 
        0xdf, 0x2f, 0x03, 0x00, 0xc0, 0x00, 0x00, 0x00, 0x00, 
        0x00, 0xa0, 0xfe, 0xff, 0xc3, 0x56, 0xd5, 0xab, 0x2e, 
        0x00, 0x00, 0x00, 0x48, 0xfa, 0xfe, 0xbf, 0x7f, 0x13, 
        0x01, 0x00, 0xc0, 0x00, 0x00, 0x00, 0x00, 0x00, 0xa4, 
        0xbd, 0xff, 0x47, 0x55, 0xb5, 0xae, 0x01, 0x00, 0x00, 
        0x20, 0x54, 0xd5, 0xdb, 0xff, 0xdf, 0x1d, 0x05, 0x00, 
        0xc0, 0x00, 0x00, 0x00, 0x00, 0x00, 0x80, 0xf6, 0xff, 
        0x87, 0x5a, 0xeb, 0x7b, 0x02, 0x00, 0x40, 0x80, 0x0a, 
        0xfa, 0xfe, 0xef, 0x7e, 0x07, 0x02, 0x00, 0xc0, 0x00, 
        0x00, 0x00, 0x00, 0x00, 0x80, 0xfd, 0xfe, 0x8f, 0x56, 
        0xd5, 0xde, 0x09, 0x00, 0x00, 0x01, 0x40, 0xf5, 0xff, 
        0xff, 0xd7, 0x15, 0x00, 0x00, 0xc0, 0x00, 0x00, 0x00, 
        0x00, 0x00, 0x80, 0xf6, 0xff, 0x1f, 0xab, 0x5a, 0x6b, 
        0x03, 0x00, 0x08, 0x20, 0x29, 0xed, 0xfb, 0xfd, 0xff, 
        0x16, 0x02, 0x00, 0xc0, 0x00, 0x00, 0x00, 0x00, 0x00, 
        0x00, 0xbb, 0xff, 0x1f, 0xb5, 0xea, 0xbd, 0x02, 0x00, 
        0x00, 0x00, 0x80, 0x74, 0xef, 0xff, 0x3b, 0x1b, 0x00, 
        0x00, 0xc0, 0x00, 0x00, 0x00, 0x00, 0x00, 0x80, 0xf6, 
        0xfe, 0x3f, 0x5a, 0xb5, 0x96, 0x00, 0x00, 0x2c, 0x00, 
        0xaa, 0xfe, 0xfd, 0xf7, 0x6f, 0x05, 0x02, 0x00, 0xc0, 
        0x00, 0x00, 0x00, 0x00, 0x00, 0x00, 0xeb, 0xff, 0x7f, 
        0xaa, 0x55, 0x2b, 0x05, 0x00, 0x5a, 0x80, 0x00, 0x75, 
        0xff, 0xff, 0x3a, 0x16, 0x00, 0x00, 0xc0, 0x00, 0x00, 
        0x00, 0x00, 0x00, 0x80, 0x76, 0xfb, 0x7f, 0xb4, 0xb6, 
        0x0d, 0x90, 0x4a, 0x07, 0x04, 0xa8, 0xfe, 0xfb, 0xff, 
        0x1f, 0x0a, 0x02, 0x00, 0xc0, 0x00, 0x00, 0x00, 0x00, 
        0x00, 0x00, 0xe3, 0xff, 0xff, 0xd4, 0xaa, 0xb2, 0x6a, 
        0xf5, 0x01, 0x10, 0x42, 0x5d, 0xff, 0xff, 0x2d, 0x14, 
        0x00, 0x00, 0xc0, 0x00, 0x00, 0x00, 0x00, 0x00, 0x80, 
        0xa6, 0xee, 0xf7, 0x69, 0xdb, 0x5c, 0xdd, 0xdf, 0x40, 
        0x80, 0xa8, 0xff, 0xfd, 0x7e, 0x3b, 0x0a, 0x02, 0x00, 
        0xc0, 0x00, 0x00, 0x00, 0x00, 0x00, 0x00, 0xe5, 0xdf, 
        0xff, 0xb1, 0x55, 0xeb, 0xfb, 0x2f, 0x00, 0x00, 0xa4, 
        0xd6, 0xfe, 0xfb, 0x1f, 0x14, 0x00, 0x00, 0xc0, 0x00, 
        0x00, 0x00, 0x00, 0x00, 0x80, 0xc3, 0xfe, 0xfd, 0x53, 
        0x5b, 0x7d, 0x6f, 0x51, 0x00, 0x24, 0xd2, 0xbf, 0xfb, 
        0x7f, 0x35, 0x14, 0x00, 0x00, 0xc0, 0x00, 0x00, 0x00, 
        0x00, 0x00, 0x00, 0x45, 0xbd, 0xff, 0xc7, 0xee, 0xff, 
        0xbd, 0x28, 0x01, 0x80, 0xa8, 0xf7, 0xfd, 0xff, 0x5f, 
        0x10, 0x00, 0x00, 0xc0, 0x00, 0x00, 0x00, 0x00, 0x00, 
        0x80, 0xc1, 0xef, 0xdf, 0x4e, 0xb5, 0xef, 0x56, 0x2d, 
        0x80, 0x20, 0xea, 0xad, 0xfe, 0x5d, 0x6b, 0x20, 0x00, 
        0x00, 0xc0, 0x00, 0x00, 0x00, 0x00, 0x00, 0x80, 0x84, 
        0x7e, 0xfb, 0x9b, 0xdb, 0xbd, 0xab, 0x16, 0x00, 0x08, 
        0x75, 0x7b, 0xf7, 0xff, 0x2f, 0x20, 0x00, 0x00, 0xc0, 
        0x00, 0x00, 0x00, 0x00, 0x00, 0x80, 0x84, 0xfd, 0xfd, 
        0x1f, 0x6d, 0xda, 0xda, 0x0a, 0x00, 0x40, 0xfd, 0x6d, 
        0xfb, 0x7f, 0x47, 0x20, 0x00, 0x00, 0xc0, 0x00, 0x00, 
        0x00, 0x00, 0x00, 0x80, 0x88, 0xda, 0x6f, 0x3f, 0xda, 
        0x73, 0x6d, 0x47, 0x00, 0x12, 0xbd, 0xb6, 0xde, 0xb7, 
        0x4d, 0x00, 0x00, 0x00, 0xc0, 0x00, 0x00, 0x00, 0x00, 
        0x00, 0x40, 0x08, 0xff, 0xfc, 0x7b, 0x54, 0xdd, 0xdb, 
        0x15, 0x00, 0xa0, 0x76, 0x5b, 0xfd, 0xff, 0x8b, 0x40, 
        0x00, 0x00, 0xc0, 0x00, 0x00, 0x00, 0x00, 0x00, 0x40, 
        0x08, 0xdd, 0xb5, 0xef, 0xf4, 0xf6, 0xfe, 0x05, 0x02, 
        0x48, 0xbf, 0xb5, 0xea, 0xdf, 0x86, 0x00, 0x00, 0x00, 
        0xc0, 0x00, 0x00, 0x00, 0x00, 0x00, 0x20, 0x10, 0xf5, 
        0xfd, 0xfd, 0x51, 0xdb, 0x6f, 0x02, 0x80, 0xd2, 0xdf, 
        0x4c, 0xff, 0xfd, 0x8b, 0x00, 0x00, 0x00, 0xc0, 0x00, 
        0x00, 0x00, 0x00, 0x00, 0x00, 0x00, 0xbe, 0x51, 0xd9, 
        0xd2, 0x6e, 0x5b, 0x01, 0x00, 0xe8, 0xb6, 0x56, 0xda, 
        0xb7, 0x05, 0x00, 0x00, 0x00, 0xc0, 0x00, 0x00, 0x00, 
        0x00, 0x00, 0x20, 0x10, 0xeb, 0xf8, 0xf9, 0x47, 0xb5, 
        0x55, 0x00, 0x10, 0xea, 0xaf, 0xa6, 0xef, 0xfb, 0x02, 
        0x01, 0x00, 0x00, 0xc0, 0x00, 0x00, 0x00, 0x00, 0x00, 
        0x00, 0x00, 0xbc, 0x51, 0x71, 0x9f, 0x5b, 0x05, 0x00, 
        0x80, 0xf4, 0x2b, 0xa9, 0x75, 0xbf, 0x03, 0x00, 0x00, 
        0x00, 0xc0, 0x00, 0x00, 0x00, 0x00, 0x00, 0x00, 0x20, 
        0xda, 0xb1, 0xd3, 0x3b, 0x6d, 0x29, 0x00, 0x40, 0xfe, 
        0x56, 0xa5, 0xfe, 0xf7, 0x11, 0x00, 0x00, 0x00, 0xc0, 
        0x00, 0x00, 0x00, 0x00, 0x00, 0x04, 0x00, 0xbc, 0xe1, 
        0xf2, 0x2e, 0xaa, 0x02, 0x00, 0x08, 0xfd, 0xab, 0x48, 
        0xf5, 0x5b, 0x03, 0x00, 0x00, 0x00, 0xc0, 0x00, 0x00, 
        0x00, 0x00, 0x00, 0x00, 0x00, 0x68, 0xa3, 0xa3, 0xff, 
        0x54, 0x05, 0x00, 0xa0, 0x7f, 0xa5, 0xb2, 0xdf, 0xbf, 
        0x01, 0x00, 0x00, 0x00, 0xc0, 0x00, 0x00, 0x00, 0x00, 
        0x00, 0x00, 0x00, 0xdc, 0x42, 0xe3, 0xfd, 0x68, 0x29, 
        0x04, 0xd2, 0xdf, 0x15, 0xc4, 0xff, 0xbb, 0x02, 0x00, 
        0x00, 0x00, 0xc0, 0x00, 0x00, 0x00, 0x00, 0x00, 0x00, 
        0x00, 0x2a, 0xc3, 0xa6, 0xef, 0x53, 0x05, 0x40, 0xa8, 
        0x7f, 0x45, 0x79, 0xff, 0x2e, 0x03, 0x00, 0x00, 0x00, 
        0xc0, 0x00, 0x00, 0x00, 0x00, 0x00, 0x00, 0x00, 0x78, 
        0x42, 0xc1, 0xbe, 0x43, 0xa5, 0x00, 0xf5, 0xb7, 0x2a, 
        0xee, 0xff, 0x3b, 0x01, 0x00, 0x00, 0x00, 0xc0, 0x00, 
        0x00, 0x00, 0x00, 0x00, 0x00, 0x00, 0x54, 0x82, 0x81, 
        0xfb, 0x47, 0x15, 0x94, 0xfc, 0xbf, 0x92, 0xfb, 0xff, 
        0x1d, 0x05, 0x00, 0x00, 0x00, 0xc0, 0x00, 0x00, 0x00, 
        0x00, 0x00, 0x00, 0x00, 0x58, 0x84, 0xc8, 0xde, 0x9f, 
        0xaa, 0xa2, 0xff, 0x57, 0xe9, 0xff, 0xbf, 0x36, 0x01, 
        0x00, 0x00, 0x00, 0xc0, 0x00, 0x00, 0x00, 0x00, 0x00, 
        0x00, 0x00, 0x58, 0x84, 0x80, 0xfb, 0x3e, 0xab, 0x5a, 
        0xff, 0x5d, 0xbd, 0xfe, 0xff, 0x1d, 0x02, 0x00, 0x00, 
        0x00, 0xc0, 0x00, 0x00, 0x00, 0x00, 0x00, 0x00, 0x00, 
        0x88, 0x00, 0x40, 0xef, 0xfb, 0xbc, 0xee, 0xff, 0x57, 
        0xef, 0xff, 0x5f, 0x14, 0x04, 0x00, 0x00, 0x00, 0xc0, 
        0x00, 0x00, 0x00, 0x00, 0x00, 0x00, 0x00, 0x18, 0x89, 
        0x80, 0xaa, 0xdb, 0xd7, 0xfb, 0x7f, 0xeb, 0xfd, 0x77, 
        0xff, 0x1d, 0x00, 0x00, 0x00, 0x00, 0xc0, 0x00, 0x00, 
        0x00, 0x00, 0x00, 0x00, 0x00, 0x08, 0x01, 0x80, 0xe7, 
        0x7b, 0xfb, 0xfe, 0xff, 0xfd, 0xff, 0xff, 0xdb, 0x14, 
        0x00, 0x00, 0x00, 0x00, 0xc0, 0x00, 0x00, 0x00, 0x00, 
        0x00, 0x00, 0x00, 0x08, 0x00, 0x00, 0xa5, 0xf9, 0xff, 
        0xff, 0x6f, 0xdf, 0xbe, 0xed, 0x7f, 0x15, 0x00, 0x00, 
        0x00, 0x00, 0xc0, 0x00, 0x00, 0x00, 0x00, 0x00, 0x00, 
        0x00, 0x08, 0x00, 0x80, 0xe7, 0xf9, 0xff, 0xff, 0xff, 
        0xf7, 0xf7, 0xff, 0xee, 0x09, 0x00, 0x00, 0x00, 0x00, 
        0xc0, 0x00, 0x00, 0x00, 0x00, 0x00, 0x00, 0x00, 0x0c, 
        0x00, 0x00, 0xa5, 0x7c, 0xef, 0xff, 0xff, 0xfe, 0xdf, 
        0xba, 0xbf, 0x22, 0x00, 0x00, 0x00, 0x00, 0xc0, 0x00, 
        0x00, 0x00, 0x00, 0x00, 0x00, 0x00, 0x00, 0x00, 0x80, 
        0xa3, 0xfc, 0xff, 0xff, 0xff, 0xff, 0xed, 0xef, 0xeb, 
        0x01, 0x00, 0x00, 0x00, 0x00, 0xc0, 0x00, 0x00, 0x00, 
        0x00, 0x00, 0x00, 0x00, 0x04, 0x00, 0x00, 0xc1, 0xfc, 
        0xfe, 0xff, 0xff, 0x7f, 0x7b, 0xd5, 0xbe, 0x0a, 0x00, 
        0x00, 0x00, 0x00, 0xc0, 0x00, 0x00, 0x00, 0x00, 0x00, 
        0x00, 0x00, 0x04, 0x00, 0x80, 0x01, 0xf8, 0xff, 0xff, 
        0xff, 0xdf, 0xbf, 0xff, 0xef, 0x03, 0x00, 0x00, 0x00, 
        0x00, 0xc0, 0x00, 0x00, 0x00, 0x00, 0x00, 0x00, 0x00, 
        0x00, 0x00, 0x00, 0x41, 0xf0, 0xff, 0xff, 0xff, 0xfb, 
        0xee, 0x55, 0x7b, 0x05, 0x00, 0x00, 0x00, 0x00, 0xc0, 
        0x00, 0x00, 0x00, 0x00, 0x00, 0x00, 0x00, 0x00, 0x00, 
        0x80, 0x00, 0xc0, 0xff, 0xff, 0xff, 0xff, 0xbb, 0xfe, 
        0xbf, 0x03, 0x00, 0x00, 0x00, 0x00, 0xc0, 0x00, 0x00, 
        0x00, 0x00, 0x00, 0x00, 0x00, 0x00, 0x00, 0x80, 0x00, 
        0xf8, 0xff, 0xff, 0x7f, 0x5f, 0xef, 0xb7, 0xd5, 0x05, 
        0x00, 0x00, 0x00, 0x00, 0xc0, 0x00, 0x00, 0x00, 0x00, 
        0x00, 0x00, 0x00, 0x00, 0x00, 0x40, 0x00, 0xf0, 0xff, 
        0xff, 0xff, 0xf7, 0x7d, 0xfd, 0xff, 0x06, 0x00, 0x00, 
        0x00, 0x00, 0xc0, 0x00, 0x00, 0x00, 0x00, 0x00, 0x00, 
        0x00, 0x00, 0x00, 0x00, 0x00, 0xf0, 0xff, 0xff, 0xff, 
        0x7f, 0xb7, 0xef, 0x76, 0x05, 0x00, 0x00, 0x00, 0x00, 
        0xc0, 0x00, 0x00, 0x00, 0x00, 0x00, 0x00, 0x00, 0x00, 
        0x00, 0x00, 0x00, 0xc0, 0xff, 0xff, 0xff, 0xde, 0xde, 
        0xba, 0xdf, 0x07, 0x00, 0x00, 0x00, 0x00, 0xc0, 0x00, 
        0x00, 0x00, 0x00, 0x00, 0x00, 0x00, 0x00, 0x00, 0x00, 
        0x00, 0xe0, 0xff, 0xff, 0xf7, 0xfb, 0x7b, 0xfd, 0x7b, 
        0x0b, 0x00, 0x00, 0x00, 0x00, 0xc0, 0x00, 0x00, 0x00, 
        0x00, 0x00, 0x00, 0x00, 0x00, 0x00, 0x00, 0x00, 0xa0, 
        0xf7, 0xfe, 0xbf, 0x6f, 0xaf, 0xef, 0xef, 0x0d, 0x00, 
        0x00, 0x00, 0x00, 0xc0, 0x00, 0x00, 0x00, 0x00, 0x00, 
        0x00, 0x00, 0x00, 0x00, 0x00, 0x00, 0xc0, 0xfe, 0xff, 
        0xff, 0xfd, 0xfd, 0xba, 0xbd, 0x16, 0x00, 0x00, 0x00, 
        0x00, 0xc0, 0x00, 0x00, 0x00, 0x00, 0x00, 0x00, 0x00, 
        0x00, 0x00, 0x00, 0x00, 0xc0, 0xff, 0xff, 0xdf, 0xb7, 
        0x57, 0xef, 0xef, 0x2b, 0x00, 0x00, 0x00, 0x00, 0xc0, 
        0x00, 0x00, 0x00, 0x00, 0x00, 0x00, 0x00, 0x00, 0x00, 
        0x00, 0x00, 0x80, 0xff, 0xb7, 0x7f, 0xff, 0xfe, 0x75, 
        0xfb, 0x2e, 0x00, 0x00, 0x00, 0x00, 0xc0, 0x00, 0x00, 
        0x00, 0x00, 0x00, 0x00, 0x00, 0x00, 0x00, 0x00, 0x00, 
        0xc0, 0xed, 0xff, 0xfd, 0xdb, 0xab, 0xde, 0xdf, 0x1b, 
        0x00, 0x00, 0x00, 0x00, 0xc0, 0x00, 0x00, 0x00, 0x00, 
        0x00, 0x00, 0x00, 0x00, 0x00, 0x00, 0x00, 0x40, 0xbf, 
        0xff, 0xb7, 0x7f, 0xff, 0xf7, 0x7b, 0x6d, 0x00, 0x00, 
        0x00, 0x00, 0xc0, 0x00, 0x00, 0x00, 0x00, 0x00, 0x00, 
        0x00, 0x00, 0x00, 0x00, 0x00, 0x80, 0xff, 0xfe, 0xff, 
        0xee, 0xdd, 0xbe, 0xde, 0x97, 0x00, 0x00, 0x00, 0x00, 
        0xc0, 0x00, 0x00, 0x00, 0x00, 0x00, 0x00, 0x00, 0x00, 
        0x00, 0x00, 0x00, 0x80, 0xfb, 0xdf, 0xed, 0xbb, 0xf7, 
        0xeb, 0xff, 0x7f, 0x00, 0x00, 0x00, 0x00, 0xc0, 0x00, 
        0x00, 0x00, 0x00, 0x00, 0x00, 0x00, 0x00, 0x00, 0x00, 
        0x00, 0x80, 0xde, 0xff, 0x7f, 0xff, 0xfe, 0xfe, 0x77, 
        0xd5, 0x01, 0x00, 0x00, 0x00, 0xc0, 0x00, 0x00, 0x00, 
        0x00, 0x00, 0x00, 0x00, 0x00, 0x00, 0x00, 0x00, 0x80, 
        0xff, 0x7b, 0xdb, 0xab, 0xab, 0xff, 0xff, 0xbf, 0x06, 
        0x00, 0x00, 0x00, 0xc0, 0x00, 0x00, 0x00, 0x00, 0x00, 
        0x00, 0x00, 0x00, 0x00, 0x00, 0x00, 0x00, 0xfb, 0xff, 
        0xff, 0xfe, 0xfd, 0xff, 0xff, 0xff, 0x03, 0x00, 0x00, 
        0x00, 0xc0, 0x00, 0x00, 0x00, 0x00, 0x00, 0x00, 0x00, 
        0x00, 0x00, 0x00, 0x00, 0x80, 0x6f, 0xef, 0xfd, 0x77, 
        0xff, 0xff, 0xaf, 0xaa, 0x0e, 0x00, 0x00, 0x00, 0xc0, 
        0x00, 0x00, 0x00, 0x00, 0x00, 0x00, 0x00, 0x00, 0x00, 
        0x00, 0x00, 0x80, 0xfd, 0xbf, 0x77, 0xdf, 0xff, 0xff, 
        0xff, 0xff, 0x25, 0x00, 0x00, 0x00, 0xc0, 0x00, 0x00, 
        0x00, 0x00, 0x00, 0x00, 0x00, 0x00, 0x00, 0x00, 0x00, 
        0x00, 0xfb, 0xfd, 0xdd, 0xfd, 0xff, 0xff, 0xff, 0xff, 
        0x5f, 0x00, 0x00, 0x00, 0xc0, 0x00, 0x00, 0x00, 0x00, 
        0x00, 0x00, 0x00, 0x00, 0x00, 0x00, 0x00, 0x9c, 0xde, 
        0x6f, 0xff, 0xf7, 0xff, 0xff, 0x7f, 0xf5, 0xff, 0x00, 
        0x00, 0x00, 0xc0, 0x00, 0x00, 0x00, 0x00, 0x00, 0x00, 
        0x00, 0x00, 0x00, 0x00, 0x00, 0x1e, 0xff, 0xff, 0xef, 
        0xfe, 0xff, 0xfb, 0xab, 0x0a, 0xf9, 0x03, 0x00, 0x00, 
        0xc0, 0x00, 0x00, 0x00, 0x00, 0x00, 0x00, 0x00, 0x00, 
        0x00, 0x00, 0x80, 0x9f, 0x7b, 0xbb, 0xbd, 0xff, 0xff, 
        0x7f, 0x55, 0xa5, 0xd4, 0x0f, 0x00, 0x00, 0xc0, 0x00, 
        0x00, 0x00, 0x00, 0x00, 0x00, 0x00, 0x00, 0x00, 0x00, 
        0xc0, 0x1f, 0xef, 0xef, 0xf7, 0xff, 0xff, 0xaf, 0x54, 
        0xb5, 0x8a, 0x1e, 0x00, 0x00, 0xc0, 0x00, 0x00, 0x00, 
        0x00, 0x00, 0x00, 0x00, 0x00, 0x00, 0x00, 0xe0, 0x9f, 
        0xfd, 0xff, 0xfe, 0xff, 0xff, 0xab, 0xab, 0x8a, 0x52, 
        0x3c, 0x00, 0x00, 0xc0, 0x00, 0x00, 0x00, 0x00, 0x00, 
        0x00, 0x00, 0x00, 0x00, 0x00, 0xf8, 0x9f, 0x7f, 0xab, 
        0xff, 0xff, 0xfb, 0xaa, 0x48, 0x50, 0x88, 0x72, 0x00, 
        0x00, 0xc0, 0x00, 0x00, 0x00, 0x00, 0x00, 0x00, 0x00, 
        0x00, 0x00, 0x00, 0xfc, 0x8f, 0xee, 0xff, 0xdf, 0xff, 
        0xbf, 0x2a, 0xa5, 0x0a, 0x55, 0xe8, 0x00, 0x00, 0xc0, 
        0x00, 0x00, 0x00, 0x00, 0x00, 0x00, 0x00, 0x00, 0x00, 
        0x00, 0xff, 0x97, 0xfb, 0xfb, 0xf7, 0xff, 0x9f, 0xaa, 
        0x12, 0xa0, 0x80, 0xc2, 0x01, 0x00, 0xc0, 0x00, 0x00, 
        0x00, 0x00, 0x00, 0x00, 0x00, 0x00, 0x00, 0x80, 0xff, 
        0x89, 0xbf, 0xf7, 0xfd, 0xbf, 0xaf, 0xaa, 0x8a, 0x0a, 
        0x54, 0x88, 0x03, 0x00, 0xc0, 0x00, 0x00, 0x00, 0x00, 
        0x00, 0x00, 0x00, 0x00, 0x00, 0xc0, 0xff, 0x5e, 0xfd, 
        0xbe, 0xfd, 0xff, 0x97, 0x4a, 0x20, 0x80, 0x00, 0x42, 
        0x03, 0x00, 0xc0, 0x00, 0x00, 0x00, 0x00, 0x00, 0x00, 
        0x00, 0x00, 0x00, 0xf0, 0x7f, 0x8d, 0xef, 0xdb, 0xfe, 
        0xff, 0xa3, 0x2a, 0x95, 0x24, 0x92, 0x08, 0x06, 0x00, 
        0xc0, 0x00, 0x00, 0x00, 0x00, 0x00, 0x00, 0x00, 0x00, 
        0x00, 0xfd, 0xaf, 0xcb, 0xbf, 0x6e, 0xf5, 0xff, 0x50, 
        0x95, 0x00, 0x00, 0x00, 0x22, 0x0c, 0x00, 0xc0, 0x00, 
        0x00, 0x00, 0x00, 0x00, 0x00, 0x00, 0x00, 0x00, 0xfc, 
        0x73, 0xaf, 0x56, 0x35, 0xfe, 0xff, 0xa0, 0x4a, 0x94, 
        0x44, 0x48, 0x00, 0x08, 0x00, 0xc0, 0x00, 0x00, 0x00, 
        0x00, 0x00, 0x00, 0x00, 0x00, 0x00, 0xff, 0xde, 0xc5, 
        0xc3, 0x1f, 0xed, 0x3d, 0x50, 0x15, 0x01, 0x00, 0x01, 
        0x09, 0x18, 0x00, 0xc0, 0x00, 0x00, 0x00, 0x00, 0x00, 
        0x00, 0x00, 0x00, 0x80, 0x7f, 0x4b, 0xab, 0x79, 0x8d, 
        0xba, 0x3f, 0x50, 0x51, 0x48, 0x10, 0x00, 0x20, 0x10, 
        0x00, 0xc0, 0x00, 0x00, 0x00, 0x00, 0x00, 0x00, 0x00, 
        0x00, 0xe0, 0xbf, 0x55, 0x55, 0xd4, 0xa7, 0xff, 0x1f, 
        0xa4, 0x8a, 0x02, 0x02, 0x00, 0x00, 0x20, 0x00, 0xc0, 
        0x00, 0x00, 0x00, 0x00, 0x00, 0x00, 0x00, 0x00, 0xa0, 
        0xdf, 0xa0, 0x26, 0x7f, 0x63, 0xff, 0x1f, 0x28, 0x55, 
        0x00, 0x00, 0x00, 0x00, 0x20, 0x00, 0xc0, 0x00, 0x00, 
        0x00, 0x00, 0x00, 0x00, 0x00, 0x00, 0xf0, 0x6f, 0xb2, 
        0x95, 0xd5, 0xd9, 0xbf, 0x0f, 0x54, 0x05, 0x12, 0x00, 
        0x00, 0x00, 0x40, 0x00, 0xc0, 0x00, 0x00, 0x00, 0x00, 
        0x00, 0x00, 0x00, 0x00, 0xd0, 0xa7, 0x54, 0xd5, 0xfe, 
        0xf4, 0xf7, 0x0f, 0xaa, 0x90, 0x40, 0x00, 0x00, 0x00, 
        0x40, 0x00, 0xc0, 0x00, 0x00, 0x00, 0x00, 0x00, 0x00, 
        0x00, 0x80, 0xf0, 0x13, 0xaa, 0x6a, 0x5b, 0xfe, 0xff, 
        0x07, 0xaa, 0x2a, 0x04, 0x00, 0x00, 0x00, 0x80, 0x00, 
        0xc0, 0x00, 0x00, 0x00, 0x00, 0x00, 0x00, 0x00, 0x40, 
        0xe0, 0x49, 0xad, 0xd6, 0x6d, 0xed, 0xed, 0x05, 0x55, 
        0x85, 0x00, 0x00, 0x00, 0x00, 0x80, 0x00, 0xc0, 0x00, 
        0x00, 0x00, 0x00, 0x00, 0x00, 0x00, 0x60, 0xf8, 0x10, 
        0x55, 0xb2, 0xb6, 0xff, 0xff, 0x07, 0x15, 0x51, 0x12, 
        0x00, 0x00, 0x00, 0x00, 0x00, 0xc0, 0x00, 0x00, 0x00, 
        0x00, 0x00, 0x00, 0x00, 0x38, 0x78, 0xa0, 0x55, 0xdd, 
        0x5d, 0xff, 0xfb, 0x03, 0xd5, 0x04, 0x00, 0x00, 0x00, 
        0x00, 0x00, 0x01, 0xc0, 0x00, 0x00, 0x00, 0x00, 0x00, 
        0x00, 0x00, 0x14, 0x3c, 0x50, 0x85, 0x6a, 0xd7, 0x7d, 
        0x7f, 0x85, 0x2a, 0x4a, 0x01, 0x00, 0x00, 0x00, 0x00, 
        0x00, 0xc0, 0x00, 0x00, 0x00, 0x00, 0x00, 0x00, 0x00, 
        0x2a, 0x3e, 0xa8, 0xaa, 0xb6, 0xed, 0xff, 0xff, 0x47, 
        0x55, 0x11, 0x08, 0x00, 0x00, 0x00, 0x00, 0x00, 0xc0, 
        0x00, 0x00, 0x00, 0x00, 0x00, 0x00, 0x00, 0x1a, 0x1f, 
        0xda, 0xd1, 0xdb, 0xf6, 0xbf, 0xdf, 0x42, 0xad, 0x44, 
        0x02, 0x00, 0x00, 0x00, 0x00, 0x00, 0xc0, 0x00, 0x00, 
        0x00, 0x00, 0x00, 0x00, 0x00, 0x8a, 0x0f, 0x6d, 0x54, 
        0xad, 0xb5, 0xdf, 0x7e, 0xa7, 0x55, 0x13, 0x00, 0x00, 
        0x00, 0x00, 0x00, 0x00, 0xc0, 0x00, 0x00, 0x00, 0x00, 
        0x00, 0x00, 0x00, 0xc5, 0x87, 0xaa, 0xda, 0x76, 0xfb, 
        0xff, 0xbf, 0x55, 0x55, 0x88, 0x10, 0x00, 0x00, 0x00, 
        0x00, 0x00, 0xc0, 0x00, 0x00, 0x00, 0x00, 0x00, 0x00, 
        0x00, 0xe5, 0x43, 0x55, 0x6d, 0xdb, 0xf5, 0xef, 0xdf, 
        0xaa, 0x2a, 0x45, 0x42, 0x00, 0x00, 0x00, 0x00, 0x00, 
        0xc0, 0x00, 0x00, 0x00, 0x00, 0x00, 0x00, 0x00, 0xf3, 
        0x20, 0xa9, 0xaa, 0xf6, 0xfe, 0xbf, 0x6f, 0xab, 0xad, 
        0x12, 0x00, 0x00, 0x00, 0x00, 0x00, 0x00, 0xc0, 0x00, 
        0x00, 0x00, 0x00, 0x00, 0x00, 0x40, 0x78, 0x91, 0x54, 
        0x55, 0xdb, 0xff, 0xff, 0xb7, 0x6d, 0x55, 0x29, 0x05, 
        0x00, 0x00, 0x00, 0x00, 0x00, 0xc0, 0x00, 0x00, 0x00, 
        0x00, 0x00, 0x00, 0x00, 0x1e, 0x24, 0xad, 0xd5, 0x7e, 
        0xff, 0xfb, 0xdf, 0xb6, 0x56, 0x42, 0x10, 0x00, 0x00, 
        0x00, 0x00, 0x00, 0xc0, 0x00, 0x00, 0x00, 0x00, 0x00, 
        0x00, 0x00, 0x4e, 0x92, 0x52, 0xb4, 0xb5, 0xfd, 0xdf, 
        0x57, 0xab, 0x55, 0x95, 0x04, 0x00, 0x00, 0x00, 0x00, 
        0x00, 0xc0, 0x00, 0x00, 0x00, 0x00, 0x00, 0x00, 0x90, 
        0x0b, 0x25, 0xad, 0x6a, 0xdf, 0xff, 0xff, 0xed, 0x6e, 
        0xad, 0x22, 0x00, 0x00, 0x00, 0x00, 0x00, 0x00, 0xc0, 
        0x00, 0x00, 0x00, 0x00, 0x00, 0x00, 0xc8, 0x81, 0x50, 
        0xa2, 0xd6, 0xed, 0xff, 0xff, 0x57, 0xb5, 0xb5, 0x94, 
        0x12, 0x00, 0x00, 0x00, 0x00, 0x00, 0xc0, 0x00, 0x00, 
        0x00, 0x00, 0x00, 0x00, 0xf0, 0xa0, 0x84, 0x8a, 0xba, 
        0xff, 0xff, 0xff, 0xb5, 0xdb, 0x56, 0x25, 0x80, 0x00, 
        0x00, 0x00, 0x00, 0x00, 0xc0, 0x00, 0x00, 0x00, 0x00, 
        0x00, 0x00, 0x38, 0x91, 0xaa, 0x52, 0xdd, 0xfa, 0xff, 
        0xf7, 0x56, 0xad, 0xaa, 0x92, 0x12, 0x00, 0x00, 0x00, 
        0x00, 0x00, 0xc0, 0x00, 0x00, 0x00, 0x00, 0x00, 0x00, 
        0x1c, 0x44, 0x00, 0xa8, 0xed, 0xff, 0xff, 0xff, 0xab, 
        0x75, 0xb7, 0x4a, 0x00, 0x00, 0x00, 0x00, 0x00, 0x00, 
        0xc0, 0x00, 0x00, 0x00, 0x00, 0x00, 0x00, 0x06, 0x29, 
        0x55, 0x55, 0x77, 0xfd, 0xff, 0xff, 0xaa, 0xae, 0xd5, 
        0x12, 0x09, 0x00, 0x00, 0x00, 0x00, 0x00, 0xc0, 0x00, 
        0x00, 0x00, 0x00, 0x00, 0x80, 0x4b, 0x52, 0x00, 0xe8, 
        0xba, 0xf7, 0xff, 0xbb, 0x6d, 0xd5, 0x5a, 0x55, 0x02, 
        0x00, 0x00, 0x00, 0x00, 0x00, 0xc0, 0x00, 0x00, 0x00, 
        0x00, 0x00, 0xc0, 0x21, 0x95, 0x8a, 0xb4, 0xdf, 0xff, 
        0xff, 0xff, 0xaa, 0x6d, 0xad, 0x8a, 0x10, 0x00, 0x00, 
        0x00, 0x00, 0x00, 0xc0, 0x00, 0x00, 0x00, 0x00, 0x00, 
        0x60, 0xa8, 0x55, 0x20, 0x6a, 0xf5, 0xbf, 0xff, 0x7d, 
        0x55, 0xb5, 0xd5, 0x2a, 0x04, 0x00, 0x00, 0x00, 0x00, 
        0x00, 0xc0, 0x00, 0x00, 0x00, 0x00, 0x00, 0x38, 0xaa, 
        0x26, 0x09, 0xb5, 0xdb, 0xff, 0xfe, 0x7f, 0x25, 0xad, 
        0x56, 0x55, 0x21, 0x00, 0x00, 0x00, 0x00, 0x00, 0xc0, 
        0x00, 0x00, 0x00, 0x00, 0x00, 0x0c, 0x55, 0x91, 0x82, 
        0xda, 0xfe, 0xfe, 0xff, 0x5f, 0x55, 0xd5, 0x5a, 0x45, 
        0x04, 0x01, 0x00, 0x00, 0x00, 0x00, 0xc0, 0x00, 0x00, 
        0x00, 0x00, 0x00, 0x42, 0xb5, 0x4a, 0x48, 0x6d, 0xff, 
        0xff, 0xff, 0xbe, 0xaa, 0x6a, 0x6b, 0x35, 0x21, 0x00, 
        0x00, 0x00, 0x00, 0x00, 0xc0, 0x00, 0x00, 0x00, 0x00, 
        0x00, 0xa1, 0xaa, 0x16, 0xa2, 0x9a, 0xdd, 0xff, 0xf7, 
        0x5f, 0x89, 0xaa, 0xad, 0x8a, 0x0a, 0x00, 0x00, 0x00, 
        0x00, 0x00, 0xc0, 0x00, 0x00, 0x00, 0x00, 0xc0, 0x50, 
        0xdd, 0x52, 0x50, 0xe6, 0xff, 0xbb, 0xeb, 0x5f, 0xa5, 
        0x5a, 0xb5, 0x55, 0x80, 0x00, 0x00, 0x00, 0x00, 0x00, 
        0xc0, 0x00, 0x00, 0x00, 0x00, 0x60, 0xaa, 0x6b, 0x8b, 
        0xaa, 0xfb, 0xff, 0xef, 0xfa, 0xaf, 0x48, 0x6a, 0x57, 
        0x55, 0x2a, 0x00, 0x00, 0x00, 0x00, 0x00, 0xc0, 0x00, 
        0x00, 0x00, 0x00, 0x18, 0x54, 0xb5, 0x4a, 0x60, 0xfd, 
        0xff, 0xbf, 0x7e, 0x2f, 0x95, 0xaa, 0xba, 0x16, 0x01, 
        0x00, 0x00, 0x00, 0x00, 0x00, 0xc0, 0x00, 0x00, 0x00, 
        0x00, 0x8c, 0xea, 0x5e, 0x2b, 0xba, 0xff, 0xff, 0xff, 
        0xf7, 0xaf, 0x22, 0xda, 0xd6, 0xaa, 0x24, 0x01, 0x00, 
        0x00, 0x00, 0x00, 0xc0, 0x00, 0x00, 0x00, 0x00, 0x26, 
        0x55, 0xeb, 0x0a, 0xed, 0xff, 0xff, 0xff, 0xff, 0x57, 
        0x48, 0x69, 0x6b, 0x55, 0x09, 0x00, 0x00, 0x00, 0x00, 
        0x00, 0xc0, 0x00, 0x00, 0x00, 0x80, 0x83, 0xea, 0x5a, 
        0xc5, 0xf4, 0xff, 0xff, 0xff, 0xff, 0x2f, 0x25, 0xaa, 
        0x55, 0x2b, 0x42, 0x00, 0x00, 0x00, 0x00, 0x00, 0xc0, 
        0x00, 0x00, 0x00, 0xe0, 0x51, 0x5d, 0xef, 0x12, 0xff, 
        0xff, 0xff, 0xdf, 0xbf, 0xa7, 0x10, 0xd5, 0xbe, 0x55, 
        0x11, 0x01, 0x00, 0x00, 0x00, 0x00, 0xc0, 0x00, 0x00, 
        0x00, 0xd0, 0x54, 0xeb, 0xb5, 0xe6, 0xff, 0xff, 0xff, 
        0xff, 0xff, 0x17, 0x85, 0x74, 0xd5, 0xaa, 0x44, 0x00, 
        0x00, 0x00, 0x00, 0x00, 0xc0, 0x00, 0x00, 0x00, 0xe4, 
        0xd2, 0xbd, 0xae, 0xf8, 0xff, 0xff, 0xff, 0xff, 0xdf, 
        0x53, 0x28, 0xa9, 0x6f, 0x2d, 0x09, 0x00, 0x00, 0x00, 
        0x00, 0x00, 0xc0, 0x00, 0x00, 0x00, 0x70, 0xbd, 0xda, 
        0x7b, 0xdf, 0xfd, 0xff, 0xff, 0xff, 0xff, 0x8f, 0x82, 
        0xd4, 0xba, 0xb5, 0x52, 0x09, 0x00, 0x00, 0x00, 0x00, 
        0xc0, 0x00, 0x00, 0x00, 0x78, 0xd5, 0xef, 0x96, 0xfa, 
        0xf7, 0xf7, 0xff, 0xff, 0xff, 0x23, 0x28, 0x6a, 0x57, 
        0x57, 0x09, 0x00, 0x00, 0x00, 0x00, 0x00, 0xc0, 0x00, 
        0x00, 0x00, 0xbe, 0x7b, 0x75, 0xcd, 0xff, 0xdf, 0xff, 
        0xff, 0xff, 0xdf, 0x57, 0x85, 0xaa, 0xfb, 0xaa, 0x44, 
        0x02, 0x00, 0x00, 0x00, 0x00, 0xc0, 0x00, 0x00, 0x00, 
        0xfd, 0xde, 0xdf, 0xa3, 0xb6, 0xff, 0xff, 0xff, 0xff, 
        0xff, 0x0a, 0x50, 0xd4, 0x5e, 0xab, 0x92, 0x20, 0x00, 
        0x00, 0x00, 0x00, 0xc0, 0x00, 0x00, 0x00, 0xbf, 0xb5, 
        0xb5, 0xf0, 0xff, 0xff, 0xff, 0xff, 0xff, 0xdf, 0x57, 
        0x85, 0x6a, 0xf7, 0x5e, 0x25, 0x04, 0x00, 0x00, 0x00, 
        0x00, 0xc0, 0x00, 0x00, 0xc0, 0x7f, 0xff, 0x6e, 0xd8, 
        0xff, 0xff, 0xff, 0xff, 0xff, 0xff, 0x07, 0x48, 0xaa, 
        0xbd, 0x6b, 0x89, 0x00, 0x00, 0x00, 0x00, 0x00, 0xc0, 
        0x00, 0x00, 0xe0, 0xdf, 0xab, 0x17, 0xf4, 0xfe, 0xfe, 
        0xff, 0xff, 0xff, 0xdf, 0x56, 0x22, 0xd5, 0xde, 0xb6, 
        0x2a, 0x82, 0x00, 0x00, 0x00, 0x00, 0xc0, 0x00, 0x00, 
        0xd0, 0xff, 0xfe, 0x0d, 0xdf, 0xf7, 0xff, 0xff, 0xff, 
        0xbf, 0xdf, 0x86, 0x48, 0xaa, 0xfb, 0x5b, 0x95, 0x08, 
        0x00, 0x00, 0x00, 0x00, 0xc0, 0x00, 0x00, 0x78, 0x6f, 
        0x5b, 0x03, 0xfa, 0xff, 0xff, 0xff, 0xff, 0xff, 0xdd, 
        0x2d, 0xa9, 0xba, 0x7e, 0x6f, 0xa5, 0x02, 0x00, 0x00, 
        0x00, 0x00, 0xc0, 0x00, 0x00, 0xe8, 0xff, 0xff, 0x81, 
        0xff, 0xff, 0xff, 0xff, 0xff, 0xff, 0xee, 0x46, 0x42, 
        0xd5, 0xfd, 0xb5, 0x15, 0x10, 0x00, 0x00, 0x00, 0x00, 
        0xc0, 0x00, 0x00, 0xfc, 0xbf, 0x6d, 0xc0, 0xf6, 0xff, 
        0xff, 0xff, 0xff, 0xad, 0xbb, 0x2f, 0x29, 0x75, 0xf7, 
        0x5f, 0x55, 0x05, 0x00, 0x00, 0x00, 0x00, 0xc0, 0x00, 
        0x00, 0xee, 0xff, 0x7f, 0xb0, 0xdf, 0xff, 0xff, 0xff, 
        0xff, 0xff, 0xdd, 0x4d, 0x44, 0xd5, 0xde, 0xf5, 0x4a, 
        0x00, 0x00, 0x00, 0x00, 0x00, 0xc0, 0x00, 0x00, 0xfa, 
        0xef, 0x1d, 0xd0, 0x7f, 0xff, 0xff, 0xff, 0x6f, 0xef, 
        0xde, 0x1f, 0x55, 0xad, 0xfb, 0x5f, 0x2b, 0x25, 0x00, 
        0x00, 0x00, 0x00, 0xc0, 0x00, 0x00, 0xff, 0xbf, 0x17, 
        0xf8, 0xfb, 0xff, 0xff, 0xff, 0xff, 0xbd, 0xff, 0x57, 
        0x20, 0xf5, 0xfe, 0xb7, 0x55, 0x81, 0x00, 0x00, 0x00, 
        0x00, 0xc0, 0x00, 0x80, 0xfd, 0xff, 0x0d, 0xdd, 0xff, 
        0xff, 0xff, 0xff, 0xbf, 0xf7, 0x5b, 0x9f, 0xaa, 0x56, 
        0xff, 0xdf, 0x2a, 0x08, 0x00, 0x00, 0x00, 0x00, 0xc0, 
        0x00, 0x80, 0xf6, 0xef, 0x47, 0x77, 0xff, 0xff, 0xff, 
        0xff, 0xf5, 0x5e, 0xff, 0x3f, 0xa4, 0xfa, 0xfb, 0x77, 
        0xab, 0x25, 0x10, 0x00, 0x00, 0x00, 0xc0, 0x00, 0xc0, 
        0xff, 0xbf, 0xa1, 0xfd, 0xff, 0xff, 0xff, 0xef, 0xbf, 
        0xfb, 0xbf, 0xbf, 0x92, 0x56, 0xef, 0xbf, 0x15, 0x00, 
        0x41, 0x00, 0x00, 0x00, 0xc0, 0x00, 0xa0, 0xbe, 0xff, 
        0x70, 0xff, 0xff, 0xff, 0xff, 0x7f, 0xd5, 0xee, 0xff, 
        0x7f, 0x48, 0xf5, 0xfd, 0xdf, 0x5a, 0x15, 0x00, 0x00, 
        0x00, 0x00, 0xc0, 0x00, 0x20, 0xfb, 0x6f, 0xa8, 0xf7, 
        0xff, 0xff, 0xff, 0xbf, 0xbf, 0x7b, 0xff, 0x7e, 0x55, 
        0xad, 0x7f, 0x7f, 0xab, 0x80, 0x00, 0x00, 0x00, 0x00, 
        0xc0, 0x00, 0xd0, 0xff, 0x3f, 0xf8, 0xde, 0xff, 0xff, 
        0xff, 0xfb, 0xd5, 0xee, 0xfd, 0xff, 0x52, 0x75, 0xf7, 
        0xb7, 0x55, 0x12, 0x04, 0x00, 0x00, 0x00, 0xc0, 0x00, 
        0x60, 0xfd, 0x1f, 0xb4, 0xff, 0xfd, 0xff, 0x77, 0xaf, 
        0xb6, 0x7d, 0xf7, 0xff, 0x48, 0xdd, 0xfe, 0xff, 0x56, 
        0x45, 0x80, 0x00, 0x00, 0x00, 0xc0, 0x00, 0x90, 0xef, 
        0x0f, 0xd4, 0xfd, 0xf7, 0xff, 0xff, 0x77, 0xdb, 0xd6, 
        0xdf, 0xfd, 0x55, 0xab, 0xfb, 0x5f, 0xab, 0x08, 0x09, 
        0x00, 0x00, 0x00, 0xc0, 0x00, 0xc0, 0xfe, 0x17, 0xdc, 
        0xff, 0xff, 0xbf, 0xbf, 0xad, 0x55, 0xfb, 0xfd, 0xf7, 
        0x53, 0xf5, 0xae, 0xff, 0x55, 0x52, 0x00, 0x00, 0x00, 
        0x00, 0xc0, 0x00, 0x50, 0xbb, 0x13, 0x6c, 0xfb, 0xff, 
        0xff, 0xee, 0xb6, 0x54, 0xad, 0xff, 0xff, 0xab, 0x5a, 
        0xfb, 0xbf, 0x56, 0x05, 0x12, 0x00, 0x00, 0x00, 0xc0, 
        0x00, 0x80, 0xee, 0x0c, 0xe8, 0xdf, 0xff, 0xff, 0xbb, 
        0x4b, 0x52, 0xf5, 0x76, 0xff, 0x57, 0xd5, 0xdd, 0x7e, 
        0x5b, 0x49, 0x00, 0x00, 0x00, 0x00, 0xc0, 0x00, 0x40, 
        0x75, 0x06, 0x6c, 0xff, 0xff, 0x7b, 0x6f, 0x3d, 0x29, 
        0xab, 0xff, 0xff, 0xaf, 0xb6, 0xf6, 0xdb, 0x55, 0x92, 
        0x02, 0x00, 0x00, 0x00, 0xc0, 0x00, 0x10, 0x2a, 0x05, 
        0xf4, 0xfb, 0xff, 0xef, 0xb5, 0x82, 0xa4, 0xfd, 0xed, 
        0xdf, 0xaf, 0xda, 0x5d, 0xff, 0x56, 0x25, 0x00, 0x00, 
        0x00, 0x00, 0xc0, 0x00, 0x00, 0x89, 0x03, 0xd2, 0xfe, 
        0xdf, 0x7f, 0xdf, 0x54, 0xa9, 0xda, 0xbf, 0xff, 0xbf, 
        0xaa, 0xf6, 0x7f, 0x5b, 0x09, 0x01, 0x00, 0x00, 0x00, 
        0xc0, 0x00, 0x08, 0x54, 0x01, 0xfd, 0xff, 0xff, 0xb7, 
        0x55, 0x0b, 0xd4, 0x7f, 0xff, 0xff, 0x7f, 0x6d, 0x5b, 
        0xed, 0x55, 0x55, 0x00, 0x00, 0x00, 0x00, 0xc0, 0x00, 
        0x50, 0xaa, 0x82, 0xb6, 0xfd, 0xff, 0xfe, 0x2a, 0x40, 
        0xaa, 0xed, 0xf7, 0xff, 0xff, 0xb6, 0xed, 0xbf, 0xae, 
        0x02, 0x00, 0x00, 0x00, 0x00, 0xc0, 0x00, 0x08, 0xf4, 
        0x11, 0xfb, 0xef, 0xff, 0x6f, 0x4b, 0x29, 0xfd, 0xff, 
        0xff, 0xfd, 0xff, 0xd5, 0xd6, 0xfe, 0xb5, 0x2a, 0x00, 
        0x00, 0x00, 0x00, 0xc0, 0x00, 0xa4, 0x5a, 0xa9, 0xee, 
        0xbe, 0xbf, 0xbb, 0x55, 0xa4, 0xb5, 0xff, 0xff, 0xff, 
        0xff, 0xbb, 0x7a, 0xeb, 0xaa, 0x02, 0x00, 0x00, 0x00, 
        0x00, 0xc0, 0x00, 0x10, 0xf6, 0xca, 0xfb, 0xff, 0xfb, 
        0x6f, 0x95, 0x92, 0xee, 0x76, 0xff, 0xff, 0xff, 0xaf, 
        0xad, 0xbf, 0xaf, 0x04, 0x00, 0x00, 0x00, 0x00, 0xc0, 
        0x00, 0x54, 0xdb, 0x5a, 0xff, 0xff, 0xff, 0xdd, 0x56, 
        0x6a, 0xfb, 0xff, 0xff, 0xef, 0xff, 0xdf, 0xf6, 0xfa, 
        0x6a, 0x02, 0x00, 0x00, 0x00, 0x00, 0xc0, 0x00, 0x48, 
        0x75, 0xea, 0xfd, 0xff, 0xbf, 0x77, 0xb3, 0xb5, 0xbf, 
        0xff, 0xfb, 0xff, 0xff, 0x7f, 0x5b, 0xdf, 0x37, 0x01, 
        0x00, 0x00, 0x00, 0x00, 0xc0, 0x00, 0xa0, 0xae, 0xaf, 
        0xbf, 0xff, 0xff, 0xbf, 0xde, 0x5e, 0xf5, 0xff, 0xff, 
        0xff, 0xff, 0xfd, 0xed, 0x7b, 0xab, 0x00, 0x00, 0x00, 
        0x00, 0x00, 0xc0, 0x00, 0x88, 0x76, 0xf5, 0xfb, 0xfe, 
        0xff, 0xf6, 0x6b, 0xeb, 0xff, 0xee, 0xbf, 0xff, 0xff, 
        0xff, 0xbb, 0xee, 0x15, 0x00, 0x00, 0x00, 0x00, 0x00, 
        0xc0, 0x00, 0x20, 0xbb, 0xde, 0xfe, 0xef, 0xff, 0xdf, 
        0xbe, 0x7d, 0xdf, 0xff, 0xff, 0xff, 0xff, 0xff, 0xdf, 
        0xbb, 0x5e, 0x00, 0x00, 0x00, 0x00, 0x00, 0xc0, 0x00, 
        0x40, 0xd5, 0xeb, 0xff, 0xff, 0xfd, 0xff, 0xeb, 0xdf, 
        0xfb, 0xff, 0xff, 0xff, 0xff, 0xff, 0xff, 0xde, 0x05, 
        0x00, 0x00, 0x00, 0x00, 0x00, 0xc0, 0x00, 0x00, 0xba, 
        0xfe, 0xff, 0xff, 0x77, 0xb7, 0x7f, 0xf5, 0xff, 0xff, 
        0xff, 0xff, 0xf7, 0x7f, 0x6f, 0xf7, 0x12, 0x00, 0x00, 
        0x00, 0x00, 0x00, 0xc0, 0x00, 0x00, 0xd5, 0x75, 0xfb, 
        0xff, 0xff, 0xff, 0xde, 0x7f, 0xff, 0xff, 0xff, 0xff, 
        0xff, 0xff, 0xfd, 0x5b, 0x05, 0x00, 0x00, 0x00, 0x00, 
        0x00, 0xc0, 0x00, 0x00, 0xa8, 0xde, 0xff, 0xff, 0xff, 
        0xff, 0xfb, 0xff, 0xff, 0xff, 0xff, 0xff, 0xff, 0xfb, 
        0xb7, 0xad, 0x02, 0x00, 0x00, 0x00, 0x00, 0x00, 0xc0, 
        0x00, 0x00, 0xa8, 0xf5, 0xff, 0xff, 0xff, 0xff, 0xff, 
        0xed, 0xfb, 0xff, 0xff, 0xff, 0xff, 0x6f, 0xdd, 0x96, 
        0x00, 0x00, 0x00, 0x00, 0x00, 0x00, 0xc0, 0x00, 0x00, 
        0xa0, 0xee, 0x76, 0xff, 0xff, 0xdd, 0xb7, 0xff, 0x7f, 
        0xff, 0xf7, 0xfd, 0xfb, 0xff, 0x6f, 0x55, 0x00, 0x00, 
        0x00, 0x00, 0x00, 0x00, 0xc0, 0x00, 0x00, 0x00, 0xb5, 
        0xff, 0xbf, 0xef, 0x7f, 0xff, 0xff, 0xff, 0xff, 0xff, 
        0xf7, 0xef, 0x76, 0xbb, 0x15, 0x00, 0x00, 0x00, 0x00, 
        0x00, 0x00, 0xc0, 0x00, 0x00, 0x80, 0xec, 0xfd, 0xfd, 
        0xff, 0xff, 0xff, 0xff, 0xff, 0xff, 0xff, 0xdf, 0xff, 
        0xdf, 0x56, 0x02, 0x00, 0x00, 0x00, 0x00, 0x00, 0x00, 
        0xc0, 0x00, 0x00, 0x00, 0x52, 0xdf, 0xff, 0xff, 0xff, 
        0xff, 0xff, 0xff, 0xff, 0xff, 0xff, 0xbd, 0x6d, 0x55, 
        0x01, 0x00, 0x00, 0x00, 0x00, 0x00, 0x00, 0xc0, 0x00, 
        0x00, 0x00, 0xa8, 0xfb, 0xff, 0xff, 0xff, 0xff, 0xff, 
        0xff, 0xfb, 0xff, 0xff, 0x77, 0xb7, 0x25, 0x00, 0x00, 
        0x00, 0x00, 0x00, 0x00, 0x00, 0xc0, 0x00, 0x00, 0x00, 
        0xa0, 0x76, 0xdb, 0xfd, 0xff, 0xff, 0xff, 0xff, 0xef, 
        0xbf, 0xff, 0xde, 0x5a, 0x0a, 0x00, 0x00, 0x00, 0x00, 
        0x00, 0x00, 0x00, 0xc0, 0x00, 0x00, 0x00, 0x00, 0xdd, 
        0xff, 0x7f, 0xff, 0xdd, 0xfd, 0xff, 0xff, 0xf6, 0xad, 
        0x6d, 0x45, 0x01, 0x00, 0x00, 0x00, 0x00, 0x00, 0x00, 
        0x00, 0xc0, 0x00, 0x00, 0x00, 0x80, 0x6a, 0xbb, 0xf7, 
        0xfb, 0xff, 0xff, 0xff, 0xff, 0xff, 0xff, 0x55, 0x29, 
        0x00, 0x00, 0x00, 0x00, 0x00, 0x00, 0x00, 0x00, 0xc0, 
        0x00, 0x00, 0x00, 0x00, 0xd4, 0xee, 0xde, 0xef, 0xff, 
        0xef, 0xff, 0xff, 0x7f, 0xb7, 0x56, 0x04, 0x00, 0x00, 
        0x00, 0x00, 0x00, 0x00, 0x00, 0x00, 0xc0, 0x00, 0x00, 
        0x00, 0x00, 0x10, 0xb5, 0xfb, 0xfe, 0xff, 0xff, 0xfb, 
        0xbb, 0xdd, 0x5d, 0x4b, 0x01, 0x00, 0x00, 0x00, 0x00, 
        0x00, 0x00, 0x00, 0x00, 0xc0, 0x00, 0x00, 0x00, 0x00, 
        0x80, 0xd2, 0xb6, 0xbb, 0xda, 0xbe, 0xaf, 0xff, 0xf7, 
        0x56, 0x10, 0x00, 0x00, 0x00, 0x00, 0x00, 0x00, 0x00, 
        0x00, 0x00, 0xc0, 0x00, 0x00, 0x00, 0x00, 0x00, 0x94, 
        0xda, 0xee, 0xff, 0xeb, 0xfd, 0xae, 0x6d, 0x55, 0x05, 
        0x00, 0x00, 0x00, 0x00, 0x00, 0x00, 0x00, 0x00, 0x00, 
        0xc0, 0x00, 0x00, 0x00, 0x00, 0x00, 0xa0, 0xaa, 0xba, 
        0xed, 0x7e, 0x6f, 0xfb, 0x56, 0x25, 0x00, 0x00, 0x00, 
        0x00, 0x00, 0x00, 0x00, 0x00, 0x00, 0x00, 0xc0, 0x00, 
        0x00, 0x00, 0x00, 0x00, 0x00, 0x4a, 0x55, 0x5b, 0xab, 
        0xb5, 0xad, 0xaa, 0x0a, 0x00, 0x00, 0x00, 0x00, 0x00, 
        0x00, 0x00, 0x00, 0x00, 0x00, 0xc0, 0x00, 0x00, 0x00, 
        0x00, 0x00, 0x00, 0xa0, 0x52, 0xb5, 0xdd, 0x5a, 0x55, 
        0x49, 0x00, 0x00, 0x00, 0x00, 0x00, 0x00, 0x00, 0x00, 
        0x00, 0x00, 0x00, 0xc0, 0x00, 0x00, 0x00, 0x00, 0x00, 
        0x00, 0x00, 0x94, 0x44, 0x22, 0x45, 0xa4, 0x12, 0x00, 
        0x00, 0x00, 0x00, 0x00, 0x00, 0x00, 0x00, 0x00, 0x00, 
        0x00, 0xc0, 0x00, 0x00, 0x00, 0x00, 0x00, 0x00, 0x00, 
        0x40, 0x2a, 0x95, 0xa8, 0x12, 0x00, 0x00, 0x00, 0x00, 
        0x00, 0x00, 0x00, 0x00, 0x00, 0x00, 0x00, 0x00, 0xc0, 
        0x00, 0x00, 0x00, 0x00, 0x00, 0x00, 0x00, 0x00, 0x40, 
        0x20, 0x02, 0x00, 0x00, 0x00, 0x00, 0x00, 0x00, 0x00, 
        0x00, 0x00, 0x00, 0x00, 0x00, 0x00, 0xc0, 0x00, 0x00, 
        0x00, 0x00, 0x00, 0x00, 0x00, 0x00, 0x00, 0x00, 0x00, 
        0x00, 0x00, 0x00, 0x00, 0x00, 0x00, 0x00, 0x00, 0x00, 
        0x00, 0x00, 0x00, 0x00, 0xc0, 0x00, 0x00, 0x00, 0x00, 
        0x00, 0x00, 0x00, 0x00, 0x00, 0x00, 0x00, 0x00, 0x00, 
        0x00, 0x00, 0x00, 0x00, 0x00, 0x00, 0x00, 0x00, 0x00, 
        0x00, 0x00, 0xc0, 0x00, 0x00, 0x00, 0x00, 0x00, 0x00, 
        0x00, 0x00, 0x00, 0x00, 0x00, 0x00, 0x00, 0x00, 0x00, 
        0x00, 0x00, 0x00, 0x00, 0x00, 0x00, 0x00, 0x00, 0x00, 
        0xc0, 0x00, 0x00, 0x00, 0x00, 0x00, 0x00, 0x00, 0x00, 
        0x00, 0x00, 0x00, 0x00, 0x00, 0x00, 0x00, 0x00, 0x00, 
        0x00, 0x00, 0x00, 0x00, 0x00, 0x00, 0x00, 0xc0, 0x00, 
        0x00, 0x00, 0x00, 0x00, 0x00, 0x00, 0x00, 0x00, 0x00, 
        0x00, 0x00, 0x00, 0x00, 0x00, 0x00, 0x00, 0x00, 0x00, 
        0x00, 0x00, 0x00, 0x00, 0x00, 0xc0, 0x00, 0x00, 0x00, 
        0x00, 0x00, 0x00, 0x00, 0x00, 0x00, 0x00, 0x00, 0x00, 
        0x00, 0x00, 0x00, 0x00, 0x00, 0x00, 0x00, 0x00, 0x00, 
        0x00, 0x00, 0x00, 0xc0, 0x00, 0x00, 0x00, 0x00, 0x00, 
        0x00, 0x00, 0x00, 0x00, 0x00, 0x00, 0x00, 0x00, 0x00, 
        0x00, 0x00, 0x00, 0x00, 0x00, 0x00, 0x00, 0x00, 0x00, 
        0x00, 0xc0, 0x00, 0x00, 0x00, 0x00, 0x00, 0x00, 0x00, 
        0x00, 0x00, 0x00, 0x00, 0x00, 0x00, 0x00, 0x00, 0x00, 
        0x00, 0x00, 0x00, 0x00, 0x00, 0x00, 0x00, 0x00, 0xc0, 
        0x00, 0x00, 0x00, 0x00, 0x00, 0x00, 0x00, 0x00, 0x00, 
        0x00, 0x00, 0x00, 0x00, 0x00, 0x00, 0x00, 0x00, 0x00, 
        0x00, 0x00, 0x00, 0x00, 0x00, 0x00, 0xc0, 0x00, 0x00, 
        0x00, 0x00, 0x00, 0x00, 0x00, 0x00, 0x00, 0x00, 0x00, 
        0x00, 0x00, 0x00, 0x00, 0x00, 0x00, 0x00, 0x00, 0x00, 
        0x00, 0x00, 0x00, 0x00, 0xc0, 0x00, 0x00, 0x00, 0x00, 
        0x00, 0x00, 0x00, 0x00, 0x00, 0x00, 0x00, 0x00, 0x00, 
        0x00, 0x00, 0x00, 0x00, 0x00, 0x00, 0x00, 0x00, 0x00, 
        0x00, 0x00, 0xc0, 0x00, 0x00, 0x00, 0x00, 0x00, 0x00, 
        0x00, 0x00, 0x00, 0x00, 0x00, 0x00, 0x00, 0x00, 0x00, 
        0x00, 0x00, 0x00, 0x00, 0x00, 0x00, 0x00, 0x00, 0x00, 
        0xc0, 0x00, 0x00, 0x00, 0x00, 0x00, 0x00, 0x00, 0x00, 
        0x00, 0x00, 0x00, 0x00, 0x00, 0x00, 0x00, 0x00, 0x00, 
        0x00, 0x00, 0x00, 0x00, 0x00, 0x00, 0x00, 0xc0, 0x00, 
        0x00, 0x00, 0x00, 0x00, 0x00, 0x00, 0x00, 0x00, 0x00, 
        0x00, 0x00, 0x00, 0x00, 0x00, 0x00, 0x00, 0x00, 0x00, 
        0x00, 0x00, 0x00, 0x00, 0x00, 0xc0, 0x00, 0x00, 0x00, 
        0x00, 0x00, 0x00, 0x00, 0x00, 0x00, 0x00, 0x00, 0x00, 
        0x00, 0x00, 0x00, 0x00, 0x00, 0x00, 0x00, 0x00, 0x00, 
        0x00, 0x00, 0x00, 0xc0, 0x00, 0x00, 0x00, 0x00, 0x00, 
        0x00, 0x00, 0x00, 0x00, 0x00, 0x00, 0x00, 0x00, 0x00, 
        0x00, 0x00, 0x00, 0x00, 0x00, 0x00, 0x00, 0x00, 0x00, 
        0x00, 0xc0, 0x00, 0x00, 0x00, 0x00, 0x00, 0x00, 0x00, 
        0x00, 0x00, 0x00, 0x00, 0x00, 0x00, 0x00, 0x00, 0x00, 
        0x00, 0x00, 0x00, 0x00, 0x00, 0x00, 0x00, 0x00, 0xc0, 
        0x00, 0x00, 0x00, 0x00, 0x00, 0x00, 0x00, 0x00, 0x00, 
        0x00, 0x00, 0x00, 0x00, 0x00, 0x00, 0x00, 0x00, 0x00, 
        0x00, 0x00, 0x00, 0x00, 0x00, 0x00, 0xc0, 0x00, 0x00, 
        0x00, 0x00, 0x00, 0x00, 0x00, 0x00, 0x00, 0x00, 0x00, 
        0x00, 0x00, 0x00, 0x00, 0x00, 0x00, 0x00, 0x00, 0x00, 
        0x00, 0x00, 0x00, 0x00, 0xc0, 0x00, 0x00, 0x00, 0x00, 
        0x00, 0x00, 0x00, 0x00, 0x00, 0x00, 0x00, 0x00, 0x00, 
        0x00, 0x00, 0x00, 0x00, 0x00, 0x00, 0x00, 0x00, 0x00, 
        0x00, 0x00, 0xc0};
